(Exported by FreeCAD)
(Post Processor: grbl_post)
(Output Time:2023-01-31 14:03:57.122314)
(Begin preamble)
G17 G90
G21
(Begin operation: G54)
(Path: G54)
G54
G0 Z5.000
(Finish operation: G54)
(Begin operation: 0.250 in Endmill001)
(Path: 0.250 in Endmill001)
(0.250 in Endmill001)
(Begin toolchange)
( M6 T2 )
(Finish operation: 0.250 in Endmill001)
(Begin operation: Drilling)
(Path: Drilling)
(Drilling)
(Begin Drilling)
G0 Z5.000
G90
G98
G0 X31.750 Y152.400
G0 Z6.350
G83 X31.750 Y152.400 Z-11.000 Q3.175 R5.500
G0 X31.750 Y177.800
G0 Z6.350
G83 X31.750 Y177.800 Z-11.000 Q3.175 R5.500
G0 X31.750 Y203.200
G0 Z6.350
G83 X31.750 Y203.200 Z-11.000 Q3.175 R5.500
G0 X31.750 Y228.600
G0 Z6.350
G83 X31.750 Y228.600 Z-11.000 Q3.175 R5.500
G0 X31.750 Y254.000
G0 Z6.350
G83 X31.750 Y254.000 Z-11.000 Q3.175 R5.500
G0 X31.750 Y279.400
G0 Z6.350
G83 X31.750 Y279.400 Z-11.000 Q3.175 R5.500
G0 X31.750 Y304.800
G0 Z6.350
G83 X31.750 Y304.800 Z-11.000 Q3.175 R5.500
G0 X31.750 Y330.200
G0 Z6.350
G83 X31.750 Y330.200 Z-11.000 Q3.175 R5.500
G0 X31.750 Y355.600
G0 Z6.350
G83 X31.750 Y355.600 Z-11.000 Q3.175 R5.500
G0 X31.750 Y381.000
G0 Z6.350
G83 X31.750 Y381.000 Z-11.000 Q3.175 R5.500
G0 X31.750 Y406.400
G0 Z6.350
G83 X31.750 Y406.400 Z-11.000 Q3.175 R5.500
G0 X273.050 Y406.400
G0 Z6.350
G83 X273.050 Y406.400 Z-11.000 Q3.175 R5.500
G0 X273.050 Y381.000
G0 Z6.350
G83 X273.050 Y381.000 Z-11.000 Q3.175 R5.500
G0 X273.050 Y355.600
G0 Z6.350
G83 X273.050 Y355.600 Z-11.000 Q3.175 R5.500
G0 X273.050 Y330.200
G0 Z6.350
G83 X273.050 Y330.200 Z-11.000 Q3.175 R5.500
G0 X273.050 Y304.800
G0 Z6.350
G83 X273.050 Y304.800 Z-11.000 Q3.175 R5.500
G0 X273.050 Y279.400
G0 Z6.350
G83 X273.050 Y279.400 Z-11.000 Q3.175 R5.500
G0 X273.050 Y254.000
G0 Z6.350
G83 X273.050 Y254.000 Z-11.000 Q3.175 R5.500
G0 X273.050 Y228.600
G0 Z6.350
G83 X273.050 Y228.600 Z-11.000 Q3.175 R5.500
G0 X273.050 Y203.200
G0 Z6.350
G83 X273.050 Y203.200 Z-11.000 Q3.175 R5.500
G0 X273.050 Y177.800
G0 Z6.350
G83 X273.050 Y177.800 Z-11.000 Q3.175 R5.500
G0 X273.050 Y152.400
G0 Z6.350
G83 X273.050 Y152.400 Z-11.000 Q3.175 R5.500
G80
G0 Z6.350
G0 Z5.000
(Finish operation: Drilling)
(Begin postamble)
M5
G17 G90
M2
