
;Exported by FreeCAD
;Post Processor: centroid_post
;CAM file: C:/Users/jense/git/cad/FreeCad/woodworking/napkin holder/napkin holder v3 left side.FCStd
;Output Time: 2022-08-19 15:28:17.514050
G90 G80 G40 G49
;T2=__250_in_Endmill
;begin preamble
G53 G00 G17
G21
;begin operation
G54
;end operation: Fixture
;begin operation
;0.250 in Endmill001
M6 T2
M3 S0
;end operation: 0.250 in Endmill001
;begin operation
G0 Z5.0000
G0 X91.1451 Y167.3451 Z5.0000
G0 X91.1451 Y167.3451 Z3.0000
G1 X91.1451 Y167.3451 Z-6.3500
G2 X92.0750 Y165.1000 Z-6.3500 I-2.2451 J-2.2451
G1 X92.0750 Y0.0000 Z-6.3500
G2 X88.9000 Y-3.1750 Z-6.3500 I-3.1750 J0.0000
G1 X0.0000 Y-3.1750 Z-6.3500
G2 X-3.1750 Y0.0000 Z-6.3500 I0.0000 J3.1750
G1 X-3.1750 Y165.1000 Z-6.3500
G2 X0.0000 Y168.2750 Z-6.3500 I3.1750 J-0.0000
G1 X88.9000 Y168.2750 Z-6.3500
G2 X91.1451 Y167.3451 Z-6.3500 I-0.0000 J-3.1750
G1 X91.1451 Y167.3451 Z-12.7000
G2 X92.0750 Y165.1000 Z-12.7000 I-2.2451 J-2.2451
G1 X92.0750 Y0.0000 Z-12.7000
G2 X88.9000 Y-3.1750 Z-12.7000 I-3.1750 J0.0000
G1 X0.0000 Y-3.1750 Z-12.7000
G2 X-3.1750 Y0.0000 Z-12.7000 I0.0000 J3.1750
G1 X-3.1750 Y165.1000 Z-12.7000
G2 X0.0000 Y168.2750 Z-12.7000 I3.1750 J-0.0000
G1 X88.9000 Y168.2750 Z-12.7000
G2 X91.1451 Y167.3451 Z-12.7000 I-0.0000 J-3.1750
G1 X91.1451 Y167.3451 Z-19.0500
G2 X92.0750 Y165.1000 Z-19.0500 I-2.2451 J-2.2451
G1 X92.0750 Y133.2865 Z-19.0500
G1 X92.0750 Y126.9365 Z-12.7000
G1 X92.0750 Y120.7135 Z-12.7000
G1 X92.0750 Y114.3635 Z-19.0500
G1 X92.0750 Y50.7365 Z-19.0500
G1 X92.0750 Y44.3865 Z-12.7000
G1 X92.0750 Y38.1635 Z-12.7000
G1 X92.0750 Y31.8135 Z-19.0500
G1 X92.0750 Y0.0000 Z-19.0500
G2 X88.9000 Y-3.1750 Z-19.0500 I-3.1750 J0.0000
G1 X53.9115 Y-3.1750 Z-19.0500
G1 X47.5615 Y-3.1750 Z-12.7000
G1 X41.3385 Y-3.1750 Z-12.7000
G1 X34.9885 Y-3.1750 Z-19.0500
G1 X0.0000 Y-3.1750 Z-19.0500
G2 X-3.1750 Y0.0000 Z-19.0500 I0.0000 J3.1750
G1 X-3.1750 Y31.8135 Z-19.0500
G1 X-3.1750 Y38.1635 Z-12.7000
G1 X-3.1750 Y44.3865 Z-12.7000
G1 X-3.1750 Y50.7365 Z-19.0500
G1 X-3.1750 Y114.3635 Z-19.0500
G1 X-3.1750 Y120.7135 Z-12.7000
G1 X-3.1750 Y126.9365 Z-12.7000
G1 X-3.1750 Y133.2865 Z-19.0500
G1 X-3.1750 Y165.1000 Z-19.0500
G2 X0.0000 Y168.2750 Z-19.0500 I3.1750 J-0.0000
G1 X34.9885 Y168.2750 Z-19.0500
G1 X41.3385 Y168.2750 Z-12.7000
G1 X47.5615 Y168.2750 Z-12.7000
G1 X53.9115 Y168.2750 Z-19.0500
G1 X88.9000 Y168.2750 Z-19.0500
G2 X91.1451 Y167.3451 Z-19.0500 I-0.0000 J-3.1750
G0 X91.1451 Y167.3451 Z5.0000
;end operation: DressupTag
;begin operation
;Pocket_Shape
G0 Z5.0000
G0 X56.7066 Y34.2044
G0 Z3.0000
G1 X56.7066 Y34.2044 Z-6.3500
G1 X20.6459 Y47.3294 Z-6.3500
G3 X17.1167 Y39.1820 Z-6.3500 I-1.5926 J-4.1482
G1 X17.6053 Y38.9755 Z-6.3500
G1 X55.5541 Y25.1633 Z-6.3500
G3 X57.8472 Y24.9269 Z-6.3500 I1.5926 J4.2078
G3 X58.5947 Y33.5172 Z-6.3500 I-0.7001 J4.3886
G1 X56.7066 Y34.2044 Z-6.3500
G0 Z5.0000
G0 X55.1863 Y30.0275 Z5.0000
G0 X55.1863 Y30.0275 Z3.0000
G1 X55.1863 Y30.0275 Z-6.3500
G1 X56.9685 Y29.3788 Z-6.3500
G1 X56.9685 Y29.3788 Z-6.3500
G1 X56.9685 Y29.3788 Z-6.3500
G1 X19.2315 Y43.1140 Z-6.3500
G1 X19.2315 Y43.1140 Z-6.3500
G1 X19.2315 Y43.1140 Z-6.3500
G1 X55.1863 Y30.0275 Z-6.3500
G1 X55.1863 Y30.0275 Z-10.1600
G1 X56.9685 Y29.3788 Z-10.1600
G1 X56.9685 Y29.3788 Z-10.1600
G1 X56.9685 Y29.3788 Z-10.1600
G1 X19.2315 Y43.1140 Z-10.1600
G1 X19.2315 Y43.1140 Z-10.1600
G1 X19.2315 Y43.1140 Z-10.1600
G1 X55.1863 Y30.0275 Z-10.1600
G0 Z5.0000
G0 X53.6660 Y25.8505 Z5.0000
G0 X53.6660 Y25.8505 Z3.0000
G1 X53.6660 Y25.8505 Z-10.1600
G1 X55.5541 Y25.1633 Z-10.1600
G3 X57.8472 Y24.9269 Z-10.1600 I1.5926 J4.2078
G3 X58.5947 Y33.5172 Z-10.1600 I-0.7001 J4.3886
G1 X20.6459 Y47.3294 Z-10.1600
G3 X17.1167 Y39.1820 Z-10.1600 I-1.5926 J-4.1482
G1 X17.6053 Y38.9755 Z-10.1600
G1 X53.6660 Y25.8505 Z-10.1600
G0 Z5.0000
G0 Z5.0000
G0 X53.6660 Y25.8505
G0 X56.6149 Y50.6211
G0 X56.6149 Y50.6211 Z3.0000
G1 X56.6149 Y50.6211 Z-6.3500
G3 X57.8472 Y50.6444 Z-6.3500 I0.5318 J4.4676
G3 X58.5947 Y59.2347 Z-6.3500 I-0.7001 J4.3886
G1 X20.6459 Y73.0469 Z-6.3500
G3 X17.1167 Y64.8995 Z-6.3500 I-1.5926 J-4.1482
G1 X17.6053 Y64.6930 Z-6.3500
G1 X55.5541 Y50.8808 Z-6.3500
G3 X56.6149 Y50.6211 Z-6.3500 I1.5926 J4.2078
G0 Z5.0000
G0 X56.9685 Y55.0963 Z5.0000
G0 X56.9685 Y55.0963 Z3.0000
G1 X56.9685 Y55.0963 Z-6.3500
G1 X56.9685 Y55.0963 Z-6.3500
G1 X19.2315 Y68.8315 Z-6.3500
G1 X19.2315 Y68.8315 Z-6.3500
G1 X19.2315 Y68.8315 Z-6.3500
G1 X56.9685 Y55.0963 Z-6.3500
G1 X56.9685 Y55.0963 Z-6.3500
G1 X56.9685 Y55.0963 Z-10.1600
G1 X56.9685 Y55.0963 Z-10.1600
G1 X19.2315 Y68.8315 Z-10.1600
G1 X19.2315 Y68.8315 Z-10.1600
G1 X19.2315 Y68.8315 Z-10.1600
G1 X56.9685 Y55.0963 Z-10.1600
G1 X56.9685 Y55.0963 Z-10.1600
G0 Z5.0000
G0 X55.4483 Y50.9193 Z5.0000
G0 X55.4483 Y50.9193 Z3.0000
G1 X55.4483 Y50.9193 Z-10.1600
G1 X55.5541 Y50.8808 Z-10.1600
G3 X57.8472 Y50.6444 Z-10.1600 I1.5926 J4.2078
G3 X58.5947 Y59.2347 Z-10.1600 I-0.7001 J4.3886
G1 X20.6459 Y73.0469 Z-10.1600
G3 X17.1167 Y64.8995 Z-10.1600 I-1.5926 J-4.1482
G1 X17.6053 Y64.6930 Z-10.1600
G1 X55.4483 Y50.9193 Z-10.1600
G0 Z5.0000
G0 Z5.0000
G0 X55.4483 Y50.9193
G0 X56.8914 Y76.3143
G0 X56.8914 Y76.3143 Z3.0000
G1 X56.8914 Y76.3143 Z-6.3500
G3 X57.8472 Y76.3619 Z-6.3500 I0.2553 J4.4919
G3 X58.5947 Y84.9522 Z-6.3500 I-0.7001 J4.3886
G1 X20.6459 Y98.7644 Z-6.3500
G3 X17.1167 Y90.6170 Z-6.3500 I-1.5926 J-4.1482
G1 X17.6053 Y90.4105 Z-6.3500
G1 X55.5541 Y76.5983 Z-6.3500
G3 X56.8914 Y76.3143 Z-6.3500 I1.5926 J4.2078
G0 Z5.0000
G0 X56.9685 Y80.8138 Z5.0000
G0 X56.9685 Y80.8138 Z3.0000
G1 X56.9685 Y80.8138 Z-6.3500
G1 X56.9685 Y80.8138 Z-6.3500
G1 X19.2315 Y94.5490 Z-6.3500
G1 X19.2315 Y94.5490 Z-6.3500
G1 X19.2315 Y94.5490 Z-6.3500
G1 X56.9685 Y80.8138 Z-6.3500
G1 X56.9685 Y80.8138 Z-6.3500
G1 X56.9685 Y80.8138 Z-10.1600
G1 X56.9685 Y80.8138 Z-10.1600
G1 X19.2315 Y94.5490 Z-10.1600
G1 X19.2315 Y94.5490 Z-10.1600
G1 X19.2315 Y94.5490 Z-10.1600
G1 X56.9685 Y80.8138 Z-10.1600
G1 X56.9685 Y80.8138 Z-10.1600
G0 Z5.0000
G0 X55.4483 Y76.6368 Z5.0000
G0 X55.4483 Y76.6368 Z3.0000
G1 X55.4483 Y76.6368 Z-10.1600
G1 X55.5541 Y76.5983 Z-10.1600
G3 X57.8472 Y76.3619 Z-10.1600 I1.5926 J4.2078
G3 X58.5947 Y84.9522 Z-10.1600 I-0.7001 J4.3886
G1 X20.6459 Y98.7644 Z-10.1600
G3 X17.1167 Y90.6170 Z-10.1600 I-1.5926 J-4.1482
G1 X17.6053 Y90.4105 Z-10.1600
G1 X55.4483 Y76.6368 Z-10.1600
G0 Z5.0000
G0 Z5.0000
G0 X55.4483 Y76.6368
G0 X56.8914 Y102.0318
G0 X56.8914 Y102.0318 Z3.0000
G1 X56.8914 Y102.0318 Z-6.3500
G3 X57.8472 Y102.0794 Z-6.3500 I0.2553 J4.4919
G3 X58.5947 Y110.6697 Z-6.3500 I-0.7001 J4.3886
G1 X20.6459 Y124.4819 Z-6.3500
G3 X17.1167 Y116.3345 Z-6.3500 I-1.5926 J-4.1482
G1 X17.6053 Y116.1280 Z-6.3500
G1 X55.5541 Y102.3158 Z-6.3500
G3 X56.8914 Y102.0318 Z-6.3500 I1.5926 J4.2078
G0 Z5.0000
G0 X56.9685 Y106.5313 Z5.0000
G0 X56.9685 Y106.5313 Z3.0000
G1 X56.9685 Y106.5313 Z-6.3500
G1 X56.9685 Y106.5313 Z-6.3500
G1 X19.2315 Y120.2665 Z-6.3500
G1 X19.2315 Y120.2665 Z-6.3500
G1 X19.2315 Y120.2665 Z-6.3500
G1 X56.9685 Y106.5313 Z-6.3500
G1 X56.9685 Y106.5313 Z-6.3500
G1 X56.9685 Y106.5313 Z-10.1600
G1 X56.9685 Y106.5313 Z-10.1600
G1 X19.2315 Y120.2665 Z-10.1600
G1 X19.2315 Y120.2665 Z-10.1600
G1 X19.2315 Y120.2665 Z-10.1600
G1 X56.9685 Y106.5313 Z-10.1600
G1 X56.9685 Y106.5313 Z-10.1600
G0 Z5.0000
G0 X55.4483 Y102.3543 Z5.0000
G0 X55.4483 Y102.3543 Z3.0000
G1 X55.4483 Y102.3543 Z-10.1600
G1 X55.5541 Y102.3158 Z-10.1600
G3 X57.8472 Y102.0794 Z-10.1600 I1.5926 J4.2078
G3 X58.5947 Y110.6697 Z-10.1600 I-0.7001 J4.3886
G1 X20.6459 Y124.4819 Z-10.1600
G3 X17.1167 Y116.3345 Z-10.1600 I-1.5926 J-4.1482
G1 X17.6053 Y116.1280 Z-10.1600
G1 X55.4483 Y102.3543 Z-10.1600
G0 Z5.0000
G0 Z5.0000
G0 X55.4483 Y102.3543
G0 X56.8927 Y127.7460
G0 X56.8927 Y127.7460 Z3.0000
G1 X56.8927 Y127.7460 Z-6.3500
G3 X61.4949 Y133.1012 Z-6.3500 I0.2525 J4.4382
G3 X58.5947 Y136.3872 Z-6.3500 I-4.3618 J-0.9268
G1 X20.6459 Y150.1994 Z-6.3500
G3 X17.1167 Y142.0520 Z-6.3500 I-1.5926 J-4.1482
G1 X17.6053 Y141.8455 Z-6.3500
G1 X55.5541 Y128.0333 Z-6.3500
G3 X56.8927 Y127.7460 Z-6.3500 I1.5910 J4.1509
G0 Z5.0000
G0 X56.9685 Y132.2488 Z5.0000
G0 X56.9685 Y132.2488 Z3.0000
G1 X56.9685 Y132.2488 Z-6.3500
G1 X56.9685 Y132.2488 Z-6.3500
G1 X19.2315 Y145.9840 Z-6.3500
G1 X19.2315 Y145.9840 Z-6.3500
G1 X19.2315 Y145.9840 Z-6.3500
G1 X56.9685 Y132.2488 Z-6.3500
G1 X56.9685 Y132.2488 Z-6.3500
G1 X56.9685 Y132.2488 Z-10.1600
G1 X56.9685 Y132.2488 Z-10.1600
G1 X19.2315 Y145.9840 Z-10.1600
G1 X19.2315 Y145.9840 Z-10.1600
G1 X19.2315 Y145.9840 Z-10.1600
G1 X56.9685 Y132.2488 Z-10.1600
G1 X56.9685 Y132.2488 Z-10.1600
G0 Z5.0000
G0 X55.4483 Y128.0718 Z5.0000
G0 X55.4483 Y128.0718 Z3.0000
G1 X55.4483 Y128.0718 Z-10.1600
G1 X55.5541 Y128.0333 Z-10.1600
G3 X61.4949 Y133.1012 Z-10.1600 I1.5910 J4.1509
G3 X58.5947 Y136.3872 Z-10.1600 I-4.3618 J-0.9268
G1 X20.6459 Y150.1994 Z-10.1600
G3 X17.1167 Y142.0520 Z-10.1600 I-1.5926 J-4.1482
G1 X17.6053 Y141.8455 Z-10.1600
G1 X55.4483 Y128.0718 Z-10.1600
G0 Z5.0000
G0 Z5.0000
;end operation: Pocket_Shape
;begin postamble
M5
M25
G49 H0
G90 G80 G40 G49
M99
