
;Exported by FreeCAD
;Post Processor: centroid_post
;CAM file: C:/Users/jense/git/cad/FreeCad/woodworking/napkin holder/napkin holder v2.2.FCStd
;Output Time: 2022-08-25 19:53:43.793354
G90 G80 G40 G49
;T2=__250_in_Endmill
;begin preamble
G53 G00 G17
G21
;begin operation
G54
;end operation: Fixture
;begin operation
;0.250 in Endmill001
M6 T2
M3 S0
;end operation: 0.250 in Endmill001
;begin operation
G0 Z5.0000
G0 X87.9701 Y173.6951 Z5.0000
G0 X87.9701 Y173.6951 Z3.0000
G1 X87.9701 Y173.6951 Z-6.3500
G2 X88.9000 Y171.4500 Z-6.3500 I-2.2451 J-2.2451
G1 X88.9000 Y0.0000 Z-6.3500
G2 X85.7250 Y-3.1750 Z-6.3500 I-3.1750 J0.0000
G1 X0.0000 Y-3.1750 Z-6.3500
G2 X-3.1750 Y0.0000 Z-6.3500 I0.0000 J3.1750
G1 X-3.1750 Y171.4500 Z-6.3500
G2 X0.0000 Y174.6250 Z-6.3500 I3.1750 J-0.0000
G1 X85.7250 Y174.6250 Z-6.3500
G2 X87.9701 Y173.6951 Z-6.3500 I-0.0000 J-3.1750
G1 X87.9701 Y173.6951 Z-12.7000
G2 X88.9000 Y171.4500 Z-12.7000 I-2.2451 J-2.2451
G1 X88.9000 Y0.0000 Z-12.7000
G2 X85.7250 Y-3.1750 Z-12.7000 I-3.1750 J0.0000
G1 X0.0000 Y-3.1750 Z-12.7000
G2 X-3.1750 Y0.0000 Z-12.7000 I0.0000 J3.1750
G1 X-3.1750 Y171.4500 Z-12.7000
G2 X0.0000 Y174.6250 Z-12.7000 I3.1750 J-0.0000
G1 X85.7250 Y174.6250 Z-12.7000
G2 X87.9701 Y173.6951 Z-12.7000 I-0.0000 J-3.1750
G1 X87.9701 Y173.6951 Z-19.0500
G2 X88.9000 Y171.4500 Z-19.0500 I-2.2451 J-2.2451
G1 X88.9000 Y138.0617 Z-19.0500
G1 X88.9000 Y132.9817 Z-13.9700
G1 X88.9000 Y124.1933 Z-13.9700
G1 X88.9000 Y119.1133 Z-19.0500
G1 X88.9000 Y52.3367 Z-19.0500
G1 X88.9000 Y47.2567 Z-13.9700
G1 X88.9000 Y38.4683 Z-13.9700
G1 X88.9000 Y33.3883 Z-19.0500
G1 X88.9000 Y0.0000 Z-19.0500
G2 X85.7250 Y-3.1750 Z-19.0500 I-3.1750 J0.0000
G1 X52.3367 Y-3.1750 Z-19.0500
G1 X47.2567 Y-3.1750 Z-13.9700
G1 X38.4683 Y-3.1750 Z-13.9700
G1 X33.3883 Y-3.1750 Z-19.0500
G1 X0.0000 Y-3.1750 Z-19.0500
G2 X-3.1750 Y0.0000 Z-19.0500 I0.0000 J3.1750
G1 X-3.1750 Y33.3883 Z-19.0500
G1 X-3.1750 Y38.4683 Z-13.9700
G1 X-3.1750 Y47.2567 Z-13.9700
G1 X-3.1750 Y52.3367 Z-19.0500
G1 X-3.1750 Y119.1133 Z-19.0500
G1 X-3.1750 Y124.1933 Z-13.9700
G1 X-3.1750 Y132.9817 Z-13.9700
G1 X-3.1750 Y138.0617 Z-19.0500
G1 X-3.1750 Y171.4500 Z-19.0500
G2 X0.0000 Y174.6250 Z-19.0500 I3.1750 J-0.0000
G1 X33.3883 Y174.6250 Z-19.0500
G1 X38.4683 Y174.6250 Z-13.9700
G1 X47.2567 Y174.6250 Z-13.9700
G1 X52.3367 Y174.6250 Z-19.0500
G1 X85.7250 Y174.6250 Z-19.0500
G2 X87.9701 Y173.6951 Z-19.0500 I-0.0000 J-3.1750
G0 X87.9701 Y173.6951 Z5.0000
;end operation: DressupTag
;begin operation
;Pocket_Shape
G0 Z5.0000
G0 X70.2770 Y31.0569
G0 Z3.0000
G1 X70.2770 Y31.0569 Z-6.3500
G2 X68.6710 Y26.2094 Z-6.3500 I-2.0173 J-2.0214
G1 X48.2060 Y22.6009 Z-6.3500
G2 X47.5042 Y22.5497 Z-6.3500 I-0.5857 J3.1974
G2 X45.2598 Y23.7791 Z-6.3500 I0.1382 J2.9157
G3 X40.4652 Y23.7791 Z-6.3500 I-2.3973 J-2.0818
G2 X37.5190 Y22.6009 Z-6.3500 I-2.3810 J1.6810
G1 X17.0540 Y26.2094 Z-6.3500
G1 X16.6558 Y26.3029 Z-6.3500
G2 X18.0464 Y31.8376 Z-6.3500 I0.8105 J2.7384
G1 X38.5141 Y28.2286 Z-6.3500
G2 X40.4617 Y27.0250 Z-6.3500 I-0.4656 J-2.9311
G3 X45.2633 Y27.0250 Z-6.3500 I2.4008 J2.0777
G2 X47.2109 Y28.2286 Z-6.3500 I2.4193 J-1.7373
G1 X67.6786 Y31.8376 Z-6.3500
G1 X68.0848 Y31.8859 Z-6.3500
G2 X70.2770 Y31.0569 Z-6.3500 I0.1749 J-2.8505
G1 X70.2770 Y31.0569 Z-11.4300
G2 X68.6710 Y26.2094 Z-11.4300 I-2.0173 J-2.0214
G1 X48.2060 Y22.6009 Z-11.4300
G2 X47.5042 Y22.5497 Z-11.4300 I-0.5857 J3.1974
G2 X45.2598 Y23.7791 Z-11.4300 I0.1382 J2.9157
G3 X40.4652 Y23.7791 Z-11.4300 I-2.3973 J-2.0818
G2 X37.5190 Y22.6009 Z-11.4300 I-2.3810 J1.6810
G1 X17.0540 Y26.2094 Z-11.4300
G1 X16.6558 Y26.3029 Z-11.4300
G2 X18.0464 Y31.8376 Z-11.4300 I0.8105 J2.7384
G1 X38.5141 Y28.2286 Z-11.4300
G2 X40.4617 Y27.0250 Z-11.4300 I-0.4656 J-2.9311
G3 X45.2633 Y27.0250 Z-11.4300 I2.4008 J2.0777
G2 X47.2109 Y28.2286 Z-11.4300 I2.4193 J-1.7373
G1 X67.6786 Y31.8376 Z-11.4300
G1 X68.0848 Y31.8859 Z-11.4300
G2 X70.2770 Y31.0569 Z-11.4300 I0.1749 J-2.8505
G0 Z5.0000
G0 Z5.0000
G0 X70.2770 Y31.0569
G0 X65.7157 Y56.9254
G0 X65.7157 Y56.9254 Z3.0000
G1 X65.7157 Y56.9254 Z-6.3500
G1 X48.2060 Y53.8380 Z-6.3500
G2 X47.5042 Y53.7869 Z-6.3500 I-0.5857 J3.1974
G2 X45.2598 Y55.0162 Z-6.3500 I0.1382 J2.9157
G3 X40.4652 Y55.0162 Z-6.3500 I-2.3973 J-2.0818
G2 X37.5190 Y53.8380 Z-6.3500 I-2.3810 J1.6810
G1 X17.0540 Y57.4465 Z-6.3500
G1 X16.6558 Y57.5400 Z-6.3500
G2 X18.0464 Y63.0747 Z-6.3500 I0.8105 J2.7384
G1 X38.5141 Y59.4657 Z-6.3500
G2 X40.4617 Y58.2621 Z-6.3500 I-0.4656 J-2.9311
G3 X45.2633 Y58.2621 Z-6.3500 I2.4008 J2.0777
G2 X47.2109 Y59.4657 Z-6.3500 I2.4193 J-1.7373
G1 X67.6786 Y63.0747 Z-6.3500
G1 X68.0848 Y63.1230 Z-6.3500
G2 X68.6710 Y57.4465 Z-6.3500 I0.1749 J-2.8505
G1 X65.7157 Y56.9254 Z-6.3500
G1 X65.7157 Y56.9254 Z-11.4300
G1 X48.2060 Y53.8380 Z-11.4300
G2 X47.5042 Y53.7869 Z-11.4300 I-0.5857 J3.1974
G2 X45.2598 Y55.0162 Z-11.4300 I0.1382 J2.9157
G3 X40.4652 Y55.0162 Z-11.4300 I-2.3973 J-2.0818
G2 X37.5190 Y53.8380 Z-11.4300 I-2.3810 J1.6810
G1 X17.0540 Y57.4465 Z-11.4300
G1 X16.6558 Y57.5400 Z-11.4300
G2 X18.0464 Y63.0747 Z-11.4300 I0.8105 J2.7384
G1 X38.5141 Y59.4657 Z-11.4300
G2 X40.4617 Y58.2621 Z-11.4300 I-0.4656 J-2.9311
G3 X45.2633 Y58.2621 Z-11.4300 I2.4008 J2.0777
G2 X47.2109 Y59.4657 Z-11.4300 I2.4193 J-1.7373
G1 X67.6786 Y63.0747 Z-11.4300
G1 X68.0848 Y63.1230 Z-11.4300
G2 X68.6710 Y57.4465 Z-11.4300 I0.1749 J-2.8505
G1 X65.7157 Y56.9254 Z-11.4300
G0 Z5.0000
G0 Z5.0000
G0 X65.7157 Y56.9254
G0 X60.3739 Y87.2207
G0 X60.3739 Y87.2207 Z3.0000
G1 X60.3739 Y87.2207 Z-6.3500
G1 X48.2060 Y85.0751 Z-6.3500
G2 X47.5042 Y85.0240 Z-6.3500 I-0.5857 J3.1974
G2 X45.2598 Y86.2534 Z-6.3500 I0.1382 J2.9157
G3 X40.4652 Y86.2534 Z-6.3500 I-2.3973 J-2.0818
G2 X37.5190 Y85.0751 Z-6.3500 I-2.3810 J1.6810
G1 X17.0540 Y88.6837 Z-6.3500
G1 X16.6558 Y88.7772 Z-6.3500
G2 X18.0464 Y94.3118 Z-6.3500 I0.8105 J2.7384
G1 X38.5141 Y90.7028 Z-6.3500
G2 X40.4617 Y89.4992 Z-6.3500 I-0.4656 J-2.9311
G3 X45.2633 Y89.4992 Z-6.3500 I2.4008 J2.0777
G2 X47.2109 Y90.7028 Z-6.3500 I2.4193 J-1.7373
G1 X67.6786 Y94.3118 Z-6.3500
G1 X68.0848 Y94.3602 Z-6.3500
G2 X68.6710 Y88.6837 Z-6.3500 I0.1749 J-2.8505
G1 X60.3739 Y87.2207 Z-6.3500
G1 X60.3739 Y87.2207 Z-11.4300
G1 X48.2060 Y85.0751 Z-11.4300
G2 X47.5042 Y85.0240 Z-11.4300 I-0.5857 J3.1974
G2 X45.2598 Y86.2534 Z-11.4300 I0.1382 J2.9157
G3 X40.4652 Y86.2534 Z-11.4300 I-2.3973 J-2.0818
G2 X37.5190 Y85.0751 Z-11.4300 I-2.3810 J1.6810
G1 X17.0540 Y88.6837 Z-11.4300
G1 X16.6558 Y88.7772 Z-11.4300
G2 X18.0464 Y94.3118 Z-11.4300 I0.8105 J2.7384
G1 X38.5141 Y90.7028 Z-11.4300
G2 X40.4617 Y89.4992 Z-11.4300 I-0.4656 J-2.9311
G3 X45.2633 Y89.4992 Z-11.4300 I2.4008 J2.0777
G2 X47.2109 Y90.7028 Z-11.4300 I2.4193 J-1.7373
G1 X67.6786 Y94.3118 Z-11.4300
G1 X68.0848 Y94.3602 Z-11.4300
G2 X68.6710 Y88.6837 Z-11.4300 I0.1749 J-2.8505
G1 X60.3739 Y87.2207 Z-11.4300
G0 Z5.0000
G0 Z5.0000
G0 X60.3739 Y87.2207
G0 X55.0320 Y117.5159
G0 X55.0320 Y117.5159 Z3.0000
G1 X55.0320 Y117.5159 Z-6.3500
G1 X48.2060 Y116.3123 Z-6.3500
G2 X47.5042 Y116.2611 Z-6.3500 I-0.5857 J3.1974
G2 X45.2598 Y117.4905 Z-6.3500 I0.1382 J2.9157
G3 X40.4652 Y117.4905 Z-6.3500 I-2.3973 J-2.0818
G2 X37.5190 Y116.3123 Z-6.3500 I-2.3810 J1.6810
G1 X17.0540 Y119.9208 Z-6.3500
G1 X16.6558 Y120.0143 Z-6.3500
G2 X18.0464 Y125.5490 Z-6.3500 I0.8105 J2.7384
G1 X38.5141 Y121.9400 Z-6.3500
G2 X40.4617 Y120.7364 Z-6.3500 I-0.4656 J-2.9311
G3 X45.2633 Y120.7364 Z-6.3500 I2.4008 J2.0777
G2 X47.2109 Y121.9400 Z-6.3500 I2.4193 J-1.7373
G1 X67.6786 Y125.5490 Z-6.3500
G1 X68.0848 Y125.5973 Z-6.3500
G2 X68.6710 Y119.9208 Z-6.3500 I0.1749 J-2.8505
G1 X55.0320 Y117.5159 Z-6.3500
G1 X55.0320 Y117.5159 Z-11.4300
G1 X48.2060 Y116.3123 Z-11.4300
G2 X47.5042 Y116.2611 Z-11.4300 I-0.5857 J3.1974
G2 X45.2598 Y117.4905 Z-11.4300 I0.1382 J2.9157
G3 X40.4652 Y117.4905 Z-11.4300 I-2.3973 J-2.0818
G2 X37.5190 Y116.3123 Z-11.4300 I-2.3810 J1.6810
G1 X17.0540 Y119.9208 Z-11.4300
G1 X16.6558 Y120.0143 Z-11.4300
G2 X18.0464 Y125.5490 Z-11.4300 I0.8105 J2.7384
G1 X38.5141 Y121.9400 Z-11.4300
G2 X40.4617 Y120.7364 Z-11.4300 I-0.4656 J-2.9311
G3 X45.2633 Y120.7364 Z-11.4300 I2.4008 J2.0777
G2 X47.2109 Y121.9400 Z-11.4300 I2.4193 J-1.7373
G1 X67.6786 Y125.5490 Z-11.4300
G1 X68.0848 Y125.5973 Z-11.4300
G2 X68.6710 Y119.9208 Z-11.4300 I0.1749 J-2.8505
G1 X55.0320 Y117.5159 Z-11.4300
G0 Z5.0000
G0 Z5.0000
G0 X55.0320 Y117.5159
G0 X49.6901 Y147.8111
G0 X49.6901 Y147.8111 Z3.0000
G1 X49.6901 Y147.8111 Z-6.3500
G1 X48.2060 Y147.5494 Z-6.3500
G2 X47.5042 Y147.4983 Z-6.3500 I-0.5857 J3.1974
G2 X45.2598 Y148.7276 Z-6.3500 I0.1382 J2.9157
G3 X40.4652 Y148.7276 Z-6.3500 I-2.3973 J-2.0818
G2 X37.5190 Y147.5494 Z-6.3500 I-2.3810 J1.6810
G1 X17.0540 Y151.1579 Z-6.3500
G1 X16.6558 Y151.2515 Z-6.3500
G2 X18.0464 Y156.7861 Z-6.3500 I0.8105 J2.7384
G1 X38.5141 Y153.1771 Z-6.3500
G2 X40.4617 Y151.9735 Z-6.3500 I-0.4656 J-2.9311
G3 X45.2633 Y151.9735 Z-6.3500 I2.4008 J2.0777
G2 X47.2109 Y153.1771 Z-6.3500 I2.4193 J-1.7373
G1 X67.6786 Y156.7861 Z-6.3500
G1 X68.0848 Y156.8345 Z-6.3500
G2 X68.6710 Y151.1579 Z-6.3500 I0.1749 J-2.8505
G1 X49.6901 Y147.8111 Z-6.3500
G1 X49.6901 Y147.8111 Z-11.4300
G1 X48.2060 Y147.5494 Z-11.4300
G2 X47.5042 Y147.4983 Z-11.4300 I-0.5857 J3.1974
G2 X45.2598 Y148.7276 Z-11.4300 I0.1382 J2.9157
G3 X40.4652 Y148.7276 Z-11.4300 I-2.3973 J-2.0818
G2 X37.5190 Y147.5494 Z-11.4300 I-2.3810 J1.6810
G1 X17.0540 Y151.1579 Z-11.4300
G1 X16.6558 Y151.2515 Z-11.4300
G2 X18.0464 Y156.7861 Z-11.4300 I0.8105 J2.7384
G1 X38.5141 Y153.1771 Z-11.4300
G2 X40.4617 Y151.9735 Z-11.4300 I-0.4656 J-2.9311
G3 X45.2633 Y151.9735 Z-11.4300 I2.4008 J2.0777
G2 X47.2109 Y153.1771 Z-11.4300 I2.4193 J-1.7373
G1 X67.6786 Y156.7861 Z-11.4300
G1 X68.0848 Y156.8345 Z-11.4300
G2 X68.6710 Y151.1579 Z-11.4300 I0.1749 J-2.8505
G1 X49.6901 Y147.8111 Z-11.4300
G0 Z5.0000
G0 Z5.0000
;end operation: Pocket_Shape
;begin postamble
M5
M25
G49 H0
G90 G80 G40 G49
M99
