
;Exported by FreeCAD
;Post Processor: centroid_post
;CAM file: C:/Users/jense/git/cad/FreeCad/woodworking/napkin holder/napkin holder v3 right side.FCStd
;Output Time: 2022-08-19 15:35:07.931168
G90 G80 G40 G49
;T2=__250_in_Endmill
;begin preamble
G53 G00 G17
G21
;begin operation
G54
;end operation: Fixture
;begin operation
;0.250 in Endmill001
M6 T2
M3 S0
;end operation: 0.250 in Endmill001
;begin operation
G0 Z5.0000
G0 X91.1451 Y167.3451 Z5.0000
G0 X91.1451 Y167.3451 Z3.0000
G1 X91.1451 Y167.3451 Z-6.3500
G2 X92.0750 Y165.1000 Z-6.3500 I-2.2451 J-2.2451
G1 X92.0750 Y0.0000 Z-6.3500
G2 X88.9000 Y-3.1750 Z-6.3500 I-3.1750 J0.0000
G1 X0.0000 Y-3.1750 Z-6.3500
G2 X-3.1750 Y0.0000 Z-6.3500 I0.0000 J3.1750
G1 X-3.1750 Y165.1000 Z-6.3500
G2 X0.0000 Y168.2750 Z-6.3500 I3.1750 J-0.0000
G1 X88.9000 Y168.2750 Z-6.3500
G2 X91.1451 Y167.3451 Z-6.3500 I-0.0000 J-3.1750
G1 X91.1451 Y167.3451 Z-12.7000
G2 X92.0750 Y165.1000 Z-12.7000 I-2.2451 J-2.2451
G1 X92.0750 Y0.0000 Z-12.7000
G2 X88.9000 Y-3.1750 Z-12.7000 I-3.1750 J0.0000
G1 X0.0000 Y-3.1750 Z-12.7000
G2 X-3.1750 Y0.0000 Z-12.7000 I0.0000 J3.1750
G1 X-3.1750 Y165.1000 Z-12.7000
G2 X0.0000 Y168.2750 Z-12.7000 I3.1750 J-0.0000
G1 X88.9000 Y168.2750 Z-12.7000
G2 X91.1451 Y167.3451 Z-12.7000 I-0.0000 J-3.1750
G1 X91.1451 Y167.3451 Z-19.0500
G2 X92.0750 Y165.1000 Z-19.0500 I-2.2451 J-2.2451
G1 X92.0750 Y133.2865 Z-19.0500
G1 X92.0750 Y126.9365 Z-12.7000
G1 X92.0750 Y120.7135 Z-12.7000
G1 X92.0750 Y114.3635 Z-19.0500
G1 X92.0750 Y50.7365 Z-19.0500
G1 X92.0750 Y44.3865 Z-12.7000
G1 X92.0750 Y38.1635 Z-12.7000
G1 X92.0750 Y31.8135 Z-19.0500
G1 X92.0750 Y0.0000 Z-19.0500
G2 X88.9000 Y-3.1750 Z-19.0500 I-3.1750 J0.0000
G1 X53.9115 Y-3.1750 Z-19.0500
G1 X47.5615 Y-3.1750 Z-12.7000
G1 X41.3385 Y-3.1750 Z-12.7000
G1 X34.9885 Y-3.1750 Z-19.0500
G1 X0.0000 Y-3.1750 Z-19.0500
G2 X-3.1750 Y0.0000 Z-19.0500 I0.0000 J3.1750
G1 X-3.1750 Y31.8135 Z-19.0500
G1 X-3.1750 Y38.1635 Z-12.7000
G1 X-3.1750 Y44.3865 Z-12.7000
G1 X-3.1750 Y50.7365 Z-19.0500
G1 X-3.1750 Y114.3635 Z-19.0500
G1 X-3.1750 Y120.7135 Z-12.7000
G1 X-3.1750 Y126.9365 Z-12.7000
G1 X-3.1750 Y133.2865 Z-19.0500
G1 X-3.1750 Y165.1000 Z-19.0500
G2 X0.0000 Y168.2750 Z-19.0500 I3.1750 J-0.0000
G1 X34.9885 Y168.2750 Z-19.0500
G1 X41.3385 Y168.2750 Z-12.7000
G1 X47.5615 Y168.2750 Z-12.7000
G1 X53.9115 Y168.2750 Z-19.0500
G1 X88.9000 Y168.2750 Z-19.0500
G2 X91.1451 Y167.3451 Z-19.0500 I-0.0000 J-3.1750
G0 X91.1451 Y167.3451 Z5.0000
;end operation: DressupTag
;begin operation
;Pocket_Shape
G0 Z5.0000
G0 X72.9906 Y46.3192
G0 Z3.0000
G1 X72.9906 Y46.3192 Z-6.3500
G3 X68.7474 Y47.4821 Z-6.3500 I-3.1420 J-3.1420
G1 X68.2565 Y47.3303 Z-6.3500
G1 X30.3030 Y33.5163 Z-6.3500
G3 X32.4256 Y24.9233 Z-6.3500 I1.4489 J-4.2008
G3 X33.3435 Y25.1625 Z-6.3500 I-0.7554 J4.7795
G1 X71.2970 Y38.9764 Z-6.3500
G3 X72.9906 Y46.3192 Z-6.3500 I-1.4485 J4.2008
G0 Z5.0000
G0 X69.6742 Y43.1160 Z5.0000
G0 X69.6742 Y43.1160 Z3.0000
G1 X69.6742 Y43.1160 Z-6.3500
G1 X69.6742 Y43.1160 Z-6.3500
G1 X31.9258 Y29.3767 Z-6.3500
G1 X31.9258 Y29.3767 Z-6.3500
G1 X31.9258 Y29.3767 Z-6.3500
G1 X69.6742 Y43.1160 Z-6.3500
G1 X69.6742 Y43.1160 Z-6.3500
G1 X69.6742 Y43.1160 Z-10.1600
G1 X69.6742 Y43.1160 Z-10.1600
G1 X31.9258 Y29.3767 Z-10.1600
G1 X31.9258 Y29.3767 Z-10.1600
G1 X31.9258 Y29.3767 Z-10.1600
G1 X69.6742 Y43.1160 Z-10.1600
G1 X69.6742 Y43.1160 Z-10.1600
G0 Z5.0000
G0 X68.1539 Y47.2930 Z5.0000
G0 X68.1539 Y47.2930 Z3.0000
G1 X68.1539 Y47.2930 Z-10.1600
G1 X30.3030 Y33.5163 Z-10.1600
G3 X32.4256 Y24.9233 Z-10.1600 I1.4489 J-4.2008
G3 X33.3435 Y25.1625 Z-10.1600 I-0.7554 J4.7795
G1 X71.2970 Y38.9764 Z-10.1600
G3 X68.7474 Y47.4821 Z-10.1600 I-1.4485 J4.2008
G1 X68.2565 Y47.3303 Z-10.1600
G1 X68.1539 Y47.2930 Z-10.1600
G0 Z5.0000
G0 Z5.0000
G0 X68.1539 Y47.2930
G0 X62.9291 Y61.6482
G0 X62.9291 Y61.6482 Z3.0000
G1 X62.9291 Y61.6482 Z-6.3500
G1 X71.2970 Y64.6939 Z-6.3500
G3 X68.7474 Y73.1996 Z-6.3500 I-1.4485 J4.2008
G1 X68.2565 Y73.0478 Z-6.3500
G1 X30.3030 Y59.2338 Z-6.3500
G3 X32.4256 Y50.6408 Z-6.3500 I1.4489 J-4.2008
G3 X33.3435 Y50.8800 Z-6.3500 I-0.7554 J4.7795
G1 X62.9291 Y61.6482 Z-6.3500
G0 Z5.0000
G0 X61.4088 Y65.8251 Z5.0000
G0 X61.4088 Y65.8251 Z3.0000
G1 X61.4088 Y65.8251 Z-6.3500
G1 X31.9258 Y55.0942 Z-6.3500
G1 X31.9258 Y55.0942 Z-6.3500
G1 X31.9258 Y55.0942 Z-6.3500
G1 X69.6742 Y68.8335 Z-6.3500
G1 X69.6742 Y68.8335 Z-6.3500
G1 X69.6742 Y68.8335 Z-6.3500
G1 X61.4088 Y65.8251 Z-6.3500
G1 X61.4088 Y65.8251 Z-10.1600
G1 X31.9258 Y55.0942 Z-10.1600
G1 X31.9258 Y55.0942 Z-10.1600
G1 X31.9258 Y55.0942 Z-10.1600
G1 X69.6742 Y68.8335 Z-10.1600
G1 X69.6742 Y68.8335 Z-10.1600
G1 X69.6742 Y68.8335 Z-10.1600
G1 X61.4088 Y65.8251 Z-10.1600
G0 Z5.0000
G0 X59.8885 Y70.0021 Z5.0000
G0 X59.8885 Y70.0021 Z3.0000
G1 X59.8885 Y70.0021 Z-10.1600
G1 X30.3030 Y59.2338 Z-10.1600
G3 X32.4256 Y50.6408 Z-10.1600 I1.4489 J-4.2008
G3 X33.3435 Y50.8800 Z-10.1600 I-0.7554 J4.7795
G1 X71.2970 Y64.6939 Z-10.1600
G3 X68.7474 Y73.1996 Z-10.1600 I-1.4485 J4.2008
G1 X68.2565 Y73.0478 Z-10.1600
G1 X59.8885 Y70.0021 Z-10.1600
G0 Z5.0000
G0 Z5.0000
G0 X59.8885 Y70.0021
G0 X54.6636 Y84.3573
G0 X54.6636 Y84.3573 Z3.0000
G1 X54.6636 Y84.3573 Z-6.3500
G1 X71.2970 Y90.4114 Z-6.3500
G3 X68.7474 Y98.9171 Z-6.3500 I-1.4485 J4.2008
G1 X68.2565 Y98.7653 Z-6.3500
G1 X30.3030 Y84.9513 Z-6.3500
G3 X32.4256 Y76.3583 Z-6.3500 I1.4489 J-4.2008
G3 X33.3435 Y76.5975 Z-6.3500 I-0.7554 J4.7795
G1 X54.6636 Y84.3573 Z-6.3500
G0 Z5.0000
G0 X53.1433 Y88.5343 Z5.0000
G0 X53.1433 Y88.5343 Z3.0000
G1 X53.1433 Y88.5343 Z-6.3500
G1 X31.9258 Y80.8117 Z-6.3500
G1 X31.9258 Y80.8117 Z-6.3500
G1 X31.9258 Y80.8117 Z-6.3500
G1 X69.6742 Y94.5510 Z-6.3500
G1 X69.6742 Y94.5510 Z-6.3500
G1 X69.6742 Y94.5510 Z-6.3500
G1 X53.1433 Y88.5343 Z-6.3500
G1 X53.1433 Y88.5343 Z-10.1600
G1 X31.9258 Y80.8117 Z-10.1600
G1 X31.9258 Y80.8117 Z-10.1600
G1 X31.9258 Y80.8117 Z-10.1600
G1 X69.6742 Y94.5510 Z-10.1600
G1 X69.6742 Y94.5510 Z-10.1600
G1 X69.6742 Y94.5510 Z-10.1600
G1 X53.1433 Y88.5343 Z-10.1600
G0 Z5.0000
G0 X51.6231 Y92.7112 Z5.0000
G0 X51.6231 Y92.7112 Z3.0000
G1 X51.6231 Y92.7112 Z-10.1600
G1 X30.3030 Y84.9513 Z-10.1600
G3 X32.4256 Y76.3583 Z-10.1600 I1.4489 J-4.2008
G3 X33.3435 Y76.5975 Z-10.1600 I-0.7554 J4.7795
G1 X71.2970 Y90.4114 Z-10.1600
G3 X68.7474 Y98.9171 Z-10.1600 I-1.4485 J4.2008
G1 X68.2565 Y98.7653 Z-10.1600
G1 X51.6231 Y92.7112 Z-10.1600
G0 Z5.0000
G0 Z5.0000
G0 X51.6231 Y92.7112
G0 X46.3982 Y107.0665
G0 X46.3982 Y107.0665 Z3.0000
G1 X46.3982 Y107.0665 Z-6.3500
G1 X71.2970 Y116.1289 Z-6.3500
G3 X68.7474 Y124.6346 Z-6.3500 I-1.4485 J4.2008
G1 X68.2565 Y124.4828 Z-6.3500
G1 X30.3030 Y110.6688 Z-6.3500
G3 X32.4256 Y102.0758 Z-6.3500 I1.4489 J-4.2008
G3 X33.3435 Y102.3150 Z-6.3500 I-0.7554 J4.7795
G1 X46.3982 Y107.0665 Z-6.3500
G0 Z5.0000
G0 X44.8779 Y111.2434 Z5.0000
G0 X44.8779 Y111.2434 Z3.0000
G1 X44.8779 Y111.2434 Z-6.3500
G1 X31.9258 Y106.5292 Z-6.3500
G1 X31.9258 Y106.5292 Z-6.3500
G1 X31.9258 Y106.5292 Z-6.3500
G1 X69.6742 Y120.2685 Z-6.3500
G1 X69.6742 Y120.2685 Z-6.3500
G1 X69.6742 Y120.2685 Z-6.3500
G1 X44.8779 Y111.2434 Z-6.3500
G1 X44.8779 Y111.2434 Z-10.1600
G1 X31.9258 Y106.5292 Z-10.1600
G1 X31.9258 Y106.5292 Z-10.1600
G1 X31.9258 Y106.5292 Z-10.1600
G1 X69.6742 Y120.2685 Z-10.1600
G1 X69.6742 Y120.2685 Z-10.1600
G1 X69.6742 Y120.2685 Z-10.1600
G1 X44.8779 Y111.2434 Z-10.1600
G0 Z5.0000
G0 X43.3576 Y115.4203 Z5.0000
G0 X43.3576 Y115.4203 Z3.0000
G1 X43.3576 Y115.4203 Z-10.1600
G1 X30.3030 Y110.6688 Z-10.1600
G3 X32.4256 Y102.0758 Z-10.1600 I1.4489 J-4.2008
G3 X33.3435 Y102.3150 Z-10.1600 I-0.7554 J4.7795
G1 X71.2970 Y116.1289 Z-10.1600
G3 X68.7474 Y124.6346 Z-10.1600 I-1.4485 J4.2008
G1 X68.2565 Y124.4828 Z-10.1600
G1 X43.3576 Y115.4203 Z-10.1600
G0 Z5.0000
G0 Z5.0000
G0 X43.3576 Y115.4203
G0 X38.1327 Y129.7756
G0 X38.1327 Y129.7756 Z3.0000
G1 X38.1327 Y129.7756 Z-6.3500
G1 X71.2970 Y141.8464 Z-6.3500
G3 X74.2395 Y146.7256 Z-6.3500 I-1.4571 J4.2055
G3 X68.2565 Y150.2003 Z-6.3500 I-4.3950 J-0.6793
G1 X30.3030 Y136.3863 Z-6.3500
G3 X32.8526 Y127.8806 Z-6.3500 I1.4485 J-4.2008
G1 X33.3435 Y128.0325 Z-6.3500
G1 X38.1327 Y129.7756 Z-6.3500
G0 Z5.0000
G0 X36.6124 Y133.9525 Z5.0000
G0 X36.6124 Y133.9525 Z3.0000
G1 X36.6124 Y133.9525 Z-6.3500
G1 X31.9258 Y132.2467 Z-6.3500
G1 X31.9258 Y132.2467 Z-6.3500
G1 X31.9258 Y132.2467 Z-6.3500
G1 X69.6742 Y145.9860 Z-6.3500
G1 X69.6742 Y145.9860 Z-6.3500
G1 X69.6742 Y145.9860 Z-6.3500
G1 X36.6124 Y133.9525 Z-6.3500
G1 X36.6124 Y133.9525 Z-10.1600
G1 X69.6742 Y145.9860 Z-10.1600
G1 X69.6742 Y145.9860 Z-10.1600
G1 X69.6742 Y145.9860 Z-10.1600
G1 X31.9258 Y132.2467 Z-10.1600
G1 X31.9258 Y132.2467 Z-10.1600
G1 X31.9258 Y132.2467 Z-10.1600
G1 X36.6124 Y133.9525 Z-10.1600
G0 Z5.0000
G0 X38.1327 Y129.7756 Z5.0000
G0 X38.1327 Y129.7756 Z3.0000
G1 X38.1327 Y129.7756 Z-10.1600
G1 X71.2970 Y141.8464 Z-10.1600
G3 X74.2395 Y146.7256 Z-10.1600 I-1.4571 J4.2055
G3 X68.2565 Y150.2003 Z-10.1600 I-4.3950 J-0.6793
G1 X30.3030 Y136.3863 Z-10.1600
G3 X32.8526 Y127.8806 Z-10.1600 I1.4485 J-4.2008
G1 X33.3435 Y128.0325 Z-10.1600
G1 X38.1327 Y129.7756 Z-10.1600
G0 Z5.0000
G0 Z5.0000
;end operation: Pocket_Shape
;begin postamble
M5
M25
G49 H0
G90 G80 G40 G49
M99
