
;Exported by FreeCAD
;Post Processor: centroid_post
;CAM file: C:/Users/jense/git/cad/FreeCad/woodworking/napkin holder/napkin holder v2.FCStd
;Output Time: 2022-08-19 12:39:30.375510
G90 G80 G40 G49
;T2=__250_in_Endmill
;begin preamble
G53 G00 G17
G21
;begin operation
G54
;end operation: Fixture
;begin operation
;0.250 in Endmill001
M6 T2
M3 S0
;end operation: 0.250 in Endmill001
;begin operation
G0 Z5.0000
G0 X94.3201 Y173.6951 Z5.0000
G0 X94.3201 Y173.6951 Z3.0000
G1 X94.3201 Y173.6951 Z-6.3500
G2 X95.2500 Y171.4500 Z-6.3500 I-2.2451 J-2.2451
G1 X95.2500 Y0.0000 Z-6.3500
G2 X92.0750 Y-3.1750 Z-6.3500 I-3.1750 J0.0000
G1 X0.0000 Y-3.1750 Z-6.3500
G2 X-3.1750 Y0.0000 Z-6.3500 I0.0000 J3.1750
G1 X-3.1750 Y171.4500 Z-6.3500
G2 X0.0000 Y174.6250 Z-6.3500 I3.1750 J-0.0000
G1 X92.0750 Y174.6250 Z-6.3500
G2 X94.3201 Y173.6951 Z-6.3500 I-0.0000 J-3.1750
G1 X94.3201 Y173.6951 Z-12.7000
G2 X95.2500 Y171.4500 Z-12.7000 I-2.2451 J-2.2451
G1 X95.2500 Y0.0000 Z-12.7000
G2 X92.0750 Y-3.1750 Z-12.7000 I-3.1750 J0.0000
G1 X0.0000 Y-3.1750 Z-12.7000
G2 X-3.1750 Y0.0000 Z-12.7000 I0.0000 J3.1750
G1 X-3.1750 Y171.4500 Z-12.7000
G2 X0.0000 Y174.6250 Z-12.7000 I3.1750 J-0.0000
G1 X92.0750 Y174.6250 Z-12.7000
G2 X94.3201 Y173.6951 Z-12.7000 I-0.0000 J-3.1750
G1 X94.3201 Y173.6951 Z-19.0500
G2 X95.2500 Y171.4500 Z-19.0500 I-2.2451 J-2.2451
G1 X95.2500 Y138.0617 Z-19.0500
G1 X95.2500 Y132.9817 Z-13.9700
G1 X95.2500 Y124.1933 Z-13.9700
G1 X95.2500 Y119.1133 Z-19.0500
G1 X95.2500 Y52.3367 Z-19.0500
G1 X95.2500 Y47.2567 Z-13.9700
G1 X95.2500 Y38.4683 Z-13.9700
G1 X95.2500 Y33.3883 Z-19.0500
G1 X95.2500 Y0.0000 Z-19.0500
G2 X92.0750 Y-3.1750 Z-19.0500 I-3.1750 J0.0000
G1 X0.0000 Y-3.1750 Z-19.0500
G2 X-3.1750 Y0.0000 Z-19.0500 I0.0000 J3.1750
G1 X-3.1750 Y33.3883 Z-19.0500
G1 X-3.1750 Y38.4683 Z-13.9700
G1 X-3.1750 Y47.2567 Z-13.9700
G1 X-3.1750 Y52.3367 Z-19.0500
G1 X-3.1750 Y119.1133 Z-19.0500
G1 X-3.1750 Y124.1933 Z-13.9700
G1 X-3.1750 Y132.9817 Z-13.9700
G1 X-3.1750 Y138.0617 Z-19.0500
G1 X-3.1750 Y171.4500 Z-19.0500
G2 X0.0000 Y174.6250 Z-19.0500 I3.1750 J-0.0000
G1 X92.0750 Y174.6250 Z-19.0500
G2 X94.3201 Y173.6951 Z-19.0500 I-0.0000 J-3.1750
G0 X94.3201 Y173.6951 Z5.0000
;end operation: DressupTag
;begin operation
;Pocket_Shape
G0 Z5.0000
G0 X76.1634 Y53.9407
G0 Z3.0000
G1 X76.1634 Y53.9407 Z-6.3500
G3 X72.4689 Y55.2060 Z-6.3500 I-3.1404 J-3.1435
G1 X71.9467 Y55.1130 Z-6.3500
G1 X51.4609 Y50.3835 Z-6.3500
G3 X48.5972 Y48.3692 Z-6.3500 I0.9709 J-4.4231
G2 X43.4778 Y48.3692 Z-6.3500 I-2.5597 J1.8784
G3 X40.6141 Y50.3835 Z-6.3500 I-3.8346 J-2.4088
G1 X20.1283 Y55.1130 Z-6.3500
G3 X17.6184 Y46.5962 Z-6.3500 I-1.0752 J-4.3114
G1 X18.1285 Y46.4508 Z-6.3500
G1 X38.6095 Y41.7224 Z-6.3500
G3 X43.4836 Y43.7097 Z-6.3500 I1.0675 J4.3528
G2 X48.5914 Y43.7097 Z-6.3500 I2.5539 J-1.8864
G3 X53.4655 Y41.7224 Z-6.3500 I3.8067 J2.3655
G1 X73.9465 Y46.4508 Z-6.3500
G3 X76.1634 Y53.9407 Z-6.3500 I-0.9236 J4.3464
G0 Z5.0000
G0 X72.8369 Y50.7566 Z5.0000
G0 X72.8369 Y50.7566 Z3.0000
G1 X72.8369 Y50.7566 Z-6.3500
G1 X72.8369 Y50.7566 Z-6.3500
G1 X53.7526 Y46.3506 Z-6.3500
G1 X72.8369 Y50.7566 Z-6.3500
G1 X72.8369 Y50.7566 Z-6.3500
G0 Z5.0000
G0 X38.3224 Y46.3506 Z5.0000
G0 X38.3224 Y46.3506 Z3.0000
G1 X38.3224 Y46.3506 Z-6.3500
G1 X19.2381 Y50.7566 Z-6.3500
G1 X19.2381 Y50.7566 Z-6.3500
G1 X19.2381 Y50.7566 Z-6.3500
G1 X38.3224 Y46.3506 Z-6.3500
G1 X38.3224 Y46.3506 Z-11.4300
G1 X19.2381 Y50.7566 Z-11.4300
G1 X19.2381 Y50.7566 Z-11.4300
G1 X19.2381 Y50.7566 Z-11.4300
G1 X38.3224 Y46.3506 Z-11.4300
G0 Z5.0000
G0 X37.3224 Y42.0196 Z5.0000
G0 X37.3224 Y42.0196 Z3.0000
G1 X37.3224 Y42.0196 Z-11.4300
G1 X38.6095 Y41.7224 Z-11.4300
G3 X43.4836 Y43.7097 Z-11.4300 I1.0675 J4.3528
G2 X48.5914 Y43.7097 Z-11.4300 I2.5539 J-1.8864
G3 X53.4655 Y41.7224 Z-11.4300 I3.8067 J2.3655
G1 X73.9465 Y46.4508 Z-11.4300
G3 X72.4689 Y55.2060 Z-11.4300 I-0.9236 J4.3464
G1 X71.9467 Y55.1130 Z-11.4300
G1 X51.4609 Y50.3835 Z-11.4300
G3 X48.5972 Y48.3692 Z-11.4300 I0.9709 J-4.4231
G2 X43.4778 Y48.3692 Z-11.4300 I-2.5597 J1.8784
G3 X40.6141 Y50.3835 Z-11.4300 I-3.8346 J-2.4088
G1 X20.1283 Y55.1130 Z-11.4300
G3 X17.6184 Y46.5962 Z-11.4300 I-1.0752 J-4.3114
G1 X18.1285 Y46.4508 Z-11.4300
G1 X37.3224 Y42.0196 Z-11.4300
G0 Z5.0000
G0 X53.7526 Y46.3506 Z5.0000
G0 X53.7526 Y46.3506 Z3.0000
G1 X53.7526 Y46.3506 Z-11.4300
G1 X72.8369 Y50.7566 Z-11.4300
G1 X72.8369 Y50.7566 Z-11.4300
G1 X72.8369 Y50.7566 Z-11.4300
G1 X53.7526 Y46.3506 Z-11.4300
G0 Z5.0000
G0 Z5.0000
G0 X53.7526 Y46.3506
G0 X52.5182 Y92.3950
G0 X52.5182 Y92.3950 Z3.0000
G1 X52.5182 Y92.3950 Z-6.3500
G3 X53.4655 Y92.5224 Z-6.3500 I-0.1201 J4.4802
G1 X73.9465 Y97.2508 Z-6.3500
G3 X77.3971 Y102.3785 Z-6.3500 I-0.9300 J4.3507
G3 X71.9467 Y105.9130 Z-6.3500 I-4.3790 J-0.7830
G1 X51.4609 Y101.1835 Z-6.3500
G3 X48.5972 Y99.1692 Z-6.3500 I0.9709 J-4.4231
G2 X43.4778 Y99.1692 Z-6.3500 I-2.5597 J1.8784
G3 X40.6141 Y101.1835 Z-6.3500 I-3.8346 J-2.4088
G1 X20.1283 Y105.9130 Z-6.3500
G3 X17.6184 Y97.3962 Z-6.3500 I-1.0752 J-4.3114
G1 X18.1285 Y97.2508 Z-6.3500
G1 X38.6095 Y92.5224 Z-6.3500
G3 X43.4836 Y94.5097 Z-6.3500 I1.0675 J4.3528
G2 X48.5914 Y94.5097 Z-6.3500 I2.5539 J-1.8864
G3 X52.5182 Y92.3950 Z-6.3500 I3.8067 J2.3655
G0 Z5.0000
G0 X52.5750 Y96.8787 Z5.0000
G0 X52.5750 Y96.8787 Z3.0000
G1 X52.5750 Y96.8787 Z-6.3500
G1 X55.6470 Y97.5880 Z-6.3500
G3 X52.5750 Y96.8787 Z-6.3500 I18.0691 J-85.2736
G0 Z5.0000
G0 X55.6470 Y97.5880 Z5.0000
G0 X55.6470 Y97.5880 Z3.0000
G1 X55.6470 Y97.5880 Z-6.3500
G1 X72.8369 Y101.5566 Z-6.3500
G1 X72.8369 Y101.5566 Z-6.3500
G1 X72.8369 Y101.5566 Z-6.3500
G1 X55.6470 Y97.5880 Z-6.3500
G0 Z5.0000
G0 X39.3203 Y96.9202 Z5.0000
G0 X39.3203 Y96.9202 Z3.0000
G1 X39.3203 Y96.9202 Z-6.3500
G1 X19.2381 Y101.5566 Z-6.3500
G1 X19.2381 Y101.5566 Z-6.3500
G1 X19.2381 Y101.5566 Z-6.3500
G1 X39.3203 Y96.9202 Z-6.3500
G1 X39.3203 Y96.9202 Z-11.4300
G1 X19.2381 Y101.5566 Z-11.4300
G1 X19.2381 Y101.5566 Z-11.4300
G1 X19.2381 Y101.5566 Z-11.4300
G1 X39.3203 Y96.9202 Z-11.4300
G0 Z5.0000
G0 X38.3204 Y92.5892 Z5.0000
G0 X38.3204 Y92.5892 Z3.0000
G1 X38.3204 Y92.5892 Z-11.4300
G1 X38.6095 Y92.5224 Z-11.4300
G3 X43.4836 Y94.5097 Z-11.4300 I1.0675 J4.3528
G2 X48.5914 Y94.5097 Z-11.4300 I2.5539 J-1.8864
G3 X53.4655 Y92.5224 Z-11.4300 I3.8067 J2.3655
G1 X73.9465 Y97.2508 Z-11.4300
G3 X77.3971 Y102.3785 Z-11.4300 I-0.9300 J4.3507
G3 X71.9467 Y105.9130 Z-11.4300 I-4.3790 J-0.7830
G1 X51.4609 Y101.1835 Z-11.4300
G3 X48.5972 Y99.1692 Z-11.4300 I0.9709 J-4.4231
G2 X43.4778 Y99.1692 Z-11.4300 I-2.5597 J1.8784
G3 X40.6141 Y101.1835 Z-11.4300 I-3.8346 J-2.4088
G1 X20.1283 Y105.9130 Z-11.4300
G3 X17.6184 Y97.3962 Z-11.4300 I-1.0752 J-4.3114
G1 X18.1285 Y97.2508 Z-11.4300
G1 X38.3204 Y92.5892 Z-11.4300
G0 Z5.0000
G0 X52.5750 Y96.8787 Z5.0000
G0 X52.5750 Y96.8787 Z3.0000
G1 X52.5750 Y96.8787 Z-11.4300
G1 X55.6470 Y97.5880 Z-11.4300
G3 X52.5750 Y96.8787 Z-11.4300 I18.0691 J-85.2736
G0 Z5.0000
G0 X55.6470 Y97.5880 Z5.0000
G0 X55.6470 Y97.5880 Z3.0000
G1 X55.6470 Y97.5880 Z-11.4300
G1 X72.8369 Y101.5566 Z-11.4300
G1 X72.8369 Y101.5566 Z-11.4300
G1 X72.8369 Y101.5566 Z-11.4300
G1 X55.6470 Y97.5880 Z-11.4300
G0 Z5.0000
G0 Z5.0000
G0 X55.6470 Y97.5880
G0 X52.6881 Y143.2028
G0 X52.6881 Y143.2028 Z3.0000
G1 X52.6881 Y143.2028 Z-6.3500
G3 X53.4655 Y143.3224 Z-6.3500 I-0.2901 J4.4724
G1 X73.9465 Y148.0508 Z-6.3500
G3 X72.4689 Y156.8060 Z-6.3500 I-0.9236 J4.3464
G1 X71.9467 Y156.7130 Z-6.3500
G1 X51.4609 Y151.9835 Z-6.3500
G3 X48.5972 Y149.9692 Z-6.3500 I0.9709 J-4.4231
G2 X43.4778 Y149.9692 Z-6.3500 I-2.5597 J1.8784
G3 X40.6141 Y151.9835 Z-6.3500 I-3.8346 J-2.4088
G1 X20.1283 Y156.7130 Z-6.3500
G3 X17.6184 Y148.1962 Z-6.3500 I-1.0752 J-4.3114
G1 X18.1285 Y148.0508 Z-6.3500
G1 X38.6095 Y143.3224 Z-6.3500
G3 X43.4836 Y145.3097 Z-6.3500 I1.0675 J4.3528
G2 X48.5914 Y145.3097 Z-6.3500 I2.5539 J-1.8864
G3 X52.6881 Y143.2028 Z-6.3500 I3.8067 J2.3655
G0 Z5.0000
G0 X53.7526 Y147.9506 Z5.0000
G0 X53.7526 Y147.9506 Z3.0000
G1 X53.7526 Y147.9506 Z-6.3500
G1 X72.8369 Y152.3566 Z-6.3500
G1 X72.8369 Y152.3566 Z-6.3500
G1 X72.8369 Y152.3566 Z-6.3500
G1 X53.7526 Y147.9506 Z-6.3500
G0 Z5.0000
G0 X38.3224 Z5.0000
G0 X38.3224 Z3.0000
G1 X38.3224 Y147.9506 Z-6.3500
G1 X19.2381 Y152.3566 Z-6.3500
G1 X19.2381 Y152.3566 Z-6.3500
G1 X19.2381 Y152.3566 Z-6.3500
G1 X38.3224 Y147.9506 Z-6.3500
G1 X38.3224 Y147.9506 Z-11.4300
G1 X19.2381 Y152.3566 Z-11.4300
G1 X19.2381 Y152.3566 Z-11.4300
G1 X19.2381 Y152.3566 Z-11.4300
G1 X38.3224 Y147.9506 Z-11.4300
G0 Z5.0000
G0 X37.3224 Y143.6196 Z5.0000
G0 X37.3224 Y143.6196 Z3.0000
G1 X37.3224 Y143.6196 Z-11.4300
G1 X38.6095 Y143.3224 Z-11.4300
G3 X43.4836 Y145.3097 Z-11.4300 I1.0675 J4.3528
G2 X48.5914 Y145.3097 Z-11.4300 I2.5539 J-1.8864
G3 X53.4655 Y143.3224 Z-11.4300 I3.8067 J2.3655
G1 X73.9465 Y148.0508 Z-11.4300
G3 X72.4689 Y156.8060 Z-11.4300 I-0.9236 J4.3464
G1 X71.9467 Y156.7130 Z-11.4300
G1 X51.4609 Y151.9835 Z-11.4300
G3 X48.5972 Y149.9692 Z-11.4300 I0.9709 J-4.4231
G2 X43.4778 Y149.9692 Z-11.4300 I-2.5597 J1.8784
G3 X40.6141 Y151.9835 Z-11.4300 I-3.8346 J-2.4088
G1 X20.1283 Y156.7130 Z-11.4300
G3 X17.6184 Y148.1962 Z-11.4300 I-1.0752 J-4.3114
G1 X18.1285 Y148.0508 Z-11.4300
G1 X37.3224 Y143.6196 Z-11.4300
G0 Z5.0000
G0 X53.7526 Y147.9506 Z5.0000
G0 X53.7526 Y147.9506 Z3.0000
G1 X53.7526 Y147.9506 Z-11.4300
G1 X72.8369 Y152.3566 Z-11.4300
G1 X72.8369 Y152.3566 Z-11.4300
G1 X72.8369 Y152.3566 Z-11.4300
G1 X53.7526 Y147.9506 Z-11.4300
G0 Z5.0000
G0 Z5.0000
;end operation: Pocket_Shape
;begin postamble
M5
M25
G49 H0
G90 G80 G40 G49
M99
