
;Exported by FreeCAD
;Post Processor: centroid_post
;CAM file: A:/eng/cad/FreeCad/woodworking/silent susan/silent susan v5.FCStd
;Output Time: 2022-06-16 20:10:29.410544
G90 G80 G40 G49
;T2=__250_in_Endmill
;begin preamble
G53 G00 G17
G21
;begin operation
G54
;end operation: Fixture
;begin operation
;0.250 in Endmill001
M6 T2
M3 S0
;end operation: 0.250 in Endmill001
;begin operation
;Profile
;Compensated Tool Path. Diameter: 6.35
G0 Z12.7000
G0 X199.8106 Y199.8106
G1 X199.8106 Y199.8106 Z-6.3500 F1270.0
G2 X9.5705 Y-282.4128 Z-6.3500 I-199.8106 J-199.8106 F2540.0
G2 X-9.5705 Y282.4128 Z-6.3500 I-9.5705 J282.4128 F2540.0
G2 X199.8106 Y199.8106 Z-6.3500 I9.5705 J-282.4128 F2540.0
G1 X199.8106 Y199.8106 Z-12.7000 F1270.0
G2 X9.5705 Y-282.4128 Z-12.7000 I-199.8106 J-199.8106 F2540.0
G2 X-9.5705 Y282.4128 Z-12.7000 I-9.5705 J282.4128 F2540.0
G2 X199.8106 Y199.8106 Z-12.7000 I9.5705 J-282.4128 F2540.0
G1 X199.8106 Y199.8106 Z-19.0500 F1270.0
G2 X9.5705 Y-282.4128 Z-19.0500 I-199.8106 J-199.8106 F2540.0
G2 X-9.5705 Y282.4128 Z-19.0500 I-9.5705 J282.4128 F2540.0
G2 X199.8106 Y199.8106 Z-19.0500 I9.5705 J-282.4128 F2540.0
G1 X199.8106 Y199.8106 Z-25.4000 F1270.0
G2 X9.5705 Y-282.4128 Z-25.4000 I-199.8106 J-199.8106 F2540.0
G2 X-9.5705 Y282.4128 Z-25.4000 I-9.5705 J282.4128 F2540.0
G2 X199.8106 Y199.8106 Z-25.4000 I9.5705 J-282.4128 F2540.0
G0 Z12.7000
G0 Z12.7000
;end operation: Profile
;begin operation
;m track
G0 Z12.7000
G0 X132.4587 Y132.4587
G1 X132.4587 Y132.4587 Z-6.3500 F1270.0
G3 X-7.6407 Y187.1689 Z-6.3500 I-132.4587 J-132.4587 F2540.0
G3 X7.6407 Y-187.1689 Z-6.3500 I7.6407 J-187.1689 F2540.0
G3 X132.4587 Y132.4587 Z-6.3500 I-7.6407 J187.1689 F2540.0
G0 Z12.7000
G0 X129.7644 Y129.7644 Z12.7000
G0 X129.7644 Y129.7644 Z12.7000
G1 X129.7644 Y129.7644 Z-6.3500 F1270.0
G3 X-7.4853 Y183.3619 Z-6.3500 I-129.7644 J-129.7644 F2540.0
G3 X7.4853 Y-183.3619 Z-6.3500 I7.4853 J-183.3619 F2540.0
G3 X129.7644 Y129.7644 Z-6.3500 I-7.4853 J183.3619 F2540.0
G0 Z12.7000
G0 X128.8664 Y128.8664 Z12.7000
G0 X128.8664 Y128.8664 Z12.7000
G1 X128.8664 Y128.8664 Z-6.3500 F1270.0
G3 X7.8087 Y182.0773 Z-6.3500 I-128.8664 J-128.8664 F2540.0
G3 X-7.8087 Y-182.0773 Z-6.3500 I-7.8087 J-182.0773 F2540.0
G3 X128.8664 Y128.8664 Z-6.3500 I7.8087 J182.0773 F2540.0
G0 Z12.7000
G0 X126.1725 Y126.1725 Z12.7000
G0 X126.1725 Y126.1725 Z12.7000
G1 X126.1725 Y126.1725 Z-6.3500 F1270.0
G3 X7.6067 Y178.2726 Z-6.3500 I-126.1725 J-126.1725 F2540.0
G3 X-178.2726 Y7.6067 Z-6.3500 I-7.6067 J-178.2726 F2540.0
G3 X-7.6067 Y-178.2726 Z-6.3500 I178.2726 J-7.6067 F2540.0
G3 X126.1725 Y126.1725 Z-6.3500 I7.6067 J178.2726 F2540.0
G1 X126.1725 Y126.1725 Z-8.8900 F1270.0
G3 X7.6067 Y178.2726 Z-8.8900 I-126.1725 J-126.1725 F2540.0
G3 X-178.2726 Y7.6067 Z-8.8900 I-7.6067 J-178.2726 F2540.0
G3 X-7.6067 Y-178.2726 Z-8.8900 I178.2726 J-7.6067 F2540.0
G3 X126.1725 Y126.1725 Z-8.8900 I7.6067 J178.2726 F2540.0
G0 Z12.7000
G0 X128.8664 Y128.8664 Z12.7000
G0 X128.8664 Y128.8664 Z12.7000
G1 X128.8664 Y128.8664 Z-8.8900 F1270.0
G3 X7.8087 Y182.0773 Z-8.8900 I-128.8664 J-128.8664 F2540.0
G3 X-7.8087 Y-182.0773 Z-8.8900 I-7.8087 J-182.0773 F2540.0
G3 X128.8664 Y128.8664 Z-8.8900 I7.8087 J182.0773 F2540.0
G0 Z12.7000
G0 X129.7644 Y129.7644 Z12.7000
G0 X129.7644 Y129.7644 Z12.7000
G1 X129.7644 Y129.7644 Z-8.8900 F1270.0
G3 X-7.4853 Y183.3619 Z-8.8900 I-129.7644 J-129.7644 F2540.0
G3 X7.4853 Y-183.3619 Z-8.8900 I7.4853 J-183.3619 F2540.0
G3 X129.7644 Y129.7644 Z-8.8900 I-7.4853 J183.3619 F2540.0
G0 Z12.7000
G0 X132.4587 Y132.4587 Z12.7000
G0 X132.4587 Y132.4587 Z12.7000
G1 X132.4587 Y132.4587 Z-8.8900 F1270.0
G3 X-7.6407 Y187.1689 Z-8.8900 I-132.4587 J-132.4587 F2540.0
G3 X7.6407 Y-187.1689 Z-8.8900 I7.6407 J-187.1689 F2540.0
G3 X132.4587 Y132.4587 Z-8.8900 I-7.6407 J187.1689 F2540.0
G0 Z12.7000
G0 Z12.7000
;end operation: m track
;begin operation
;bolt hole
G0 Z12.7000
G0 X19.2490 Y12.5681
G1 X19.2490 Y12.5681 Z-6.3500 F1270.0
G3 X18.4326 Y12.4551 Z-6.3500 I-0.1983 J-1.5737 F2540.0
G1 X18.1757 Y12.3268 Z-6.3500 F2540.0
G1 X6.3500 Y5.4993 Z-6.3500 F2540.0
G2 X1.5875 Y8.2489 Z-6.3500 I-1.5875 J2.7496 F2540.0
G1 X1.5875 Y21.9002 Z-6.3500 F2540.0
G3 X-1.5688 Y22.1982 Z-6.3500 I-1.5833 J0.0946 F2540.0
G1 X-1.5875 Y21.9002 Z-6.3500 F2540.0
G1 X-1.5875 Y8.2489 Z-6.3500 F2540.0
G2 X-6.3500 Y5.4993 Z-6.3500 I-3.1750 J0.0000 F2540.0
G1 X-18.1724 Y12.3249 Z-6.3500 F2540.0
G3 X-20.0086 Y9.7405 Z-6.3500 I-0.8736 J-1.3238 F2540.0
G1 X-19.7599 Y9.5753 Z-6.3500 F2540.0
G1 X-7.9375 Y2.7496 Z-6.3500 F2540.0
G2 X-7.9375 Y-2.7496 Z-6.3500 I-1.5875 J-2.7496 F2540.0
G1 X-19.7599 Y-9.5753 Z-6.3500 F2540.0
G3 X-18.4398 Y-12.4577 Z-6.3500 I0.7097 J-1.4185 F2540.0
G1 X-18.1724 Y-12.3249 Z-6.3500 F2540.0
G1 X-6.3500 Y-5.4993 Z-6.3500 F2540.0
G2 X-1.5875 Y-8.2489 Z-6.3500 I1.5875 J-2.7496 F2540.0
G1 X-1.5875 Y-21.9002 Z-6.3500 F2540.0
G3 X0.4886 Y-23.5038 Z-6.3500 I1.5889 J-0.0887 F2540.0
G3 X1.5875 Y-21.9002 Z-6.3500 I-0.5021 J1.5224 F2540.0
G1 X1.5875 Y-8.2489 Z-6.3500 F2540.0
G2 X6.3500 Y-5.4993 Z-6.3500 I3.1750 J-0.0000 F2540.0
G1 X18.1757 Y-12.3268 Z-6.3500 F2540.0
G3 X20.0028 Y-9.7355 Z-6.3500 I0.8710 J1.3257 F2540.0
G1 X19.7632 Y-9.5772 Z-6.3500 F2540.0
G1 X7.9375 Y-2.7496 Z-6.3500 F2540.0
G2 X7.9375 Y2.7496 Z-6.3500 I1.5875 J2.7496 F2540.0
G1 X19.7632 Y9.5772 Z-6.3500 F2540.0
G3 X19.2490 Y12.5681 Z-6.3500 I-0.7126 J1.4171 F2540.0
G0 Z12.7000
G0 X0.6522 Y0.3752 Z12.7000
G0 X0.6522 Y0.3752 Z12.7000
G1 X0.6522 Y0.3752 Z-6.3500 F1270.0
G2 X0.0012 Y0.7524 Z-6.3500 I1.6797 J3.6493 F2540.0
G2 X-0.6510 Y0.3772 Z-6.3500 I-2.3206 J3.2793 F2540.0
G2 X-0.6522 Y-0.3752 Z-6.3500 I-4.0003 J-0.3700 F2540.0
G2 X-0.0012 Y-0.7524 Z-6.3500 I-1.6797 J-3.6494 F2540.0
G2 X0.6510 Y-0.3772 Z-6.3500 I2.3206 J-3.2793 F2540.0
G2 X0.6522 Y0.3752 Z-6.3500 I4.0003 J0.3700 F2540.0
G1 X0.6522 Y0.3752 Z-12.7000 F1270.0
G2 X0.0012 Y0.7524 Z-12.7000 I1.6797 J3.6493 F2540.0
G2 X-0.6510 Y0.3772 Z-12.7000 I-2.3206 J3.2793 F2540.0
G2 X-0.6522 Y-0.3752 Z-12.7000 I-4.0003 J-0.3700 F2540.0
G2 X-0.0012 Y-0.7524 Z-12.7000 I-1.6797 J-3.6494 F2540.0
G2 X0.6510 Y-0.3772 Z-12.7000 I2.3206 J-3.2793 F2540.0
G2 X0.6522 Y0.3752 Z-12.7000 I4.0003 J0.3700 F2540.0
G0 Z12.7000
G0 X6.3528 Y0.1341 Z12.7000
G0 X6.3528 Y0.1341 Z12.7000
G1 X6.3528 Y0.1341 Z-12.7000 F1270.0
G2 X7.9375 Y2.7496 Z-12.7000 I3.1722 J-0.1341 F2540.0
G1 X19.7599 Y9.5753 Z-12.7000 F2540.0
G3 X18.4398 Y12.4577 Z-12.7000 I-0.7097 J1.4185 F2540.0
G1 X18.1724 Y12.3249 Z-12.7000 F2540.0
G1 X6.3500 Y5.4993 Z-12.7000 F2540.0
G2 X1.5875 Y8.2489 Z-12.7000 I-1.5875 J2.7496 F2540.0
G1 X1.5875 Y21.9002 Z-12.7000 F2540.0
G3 X-1.5688 Y22.1982 Z-12.7000 I-1.5833 J0.0946 F2540.0
G1 X-1.5875 Y21.9002 Z-12.7000 F2540.0
G1 X-1.5875 Y8.2489 Z-12.7000 F2540.0
G2 X-6.3500 Y5.4993 Z-12.7000 I-3.1750 J0.0000 F2540.0
G1 X-18.1724 Y12.3249 Z-12.7000 F2540.0
G3 X-20.0086 Y9.7405 Z-12.7000 I-0.8736 J-1.3238 F2540.0
G1 X-19.7599 Y9.5753 Z-12.7000 F2540.0
G1 X-7.9375 Y2.7496 Z-12.7000 F2540.0
G2 X-7.9375 Y-2.7496 Z-12.7000 I-1.5875 J-2.7496 F2540.0
G1 X-19.7599 Y-9.5753 Z-12.7000 F2540.0
G3 X-18.4398 Y-12.4577 Z-12.7000 I0.7097 J-1.4185 F2540.0
G1 X-18.1724 Y-12.3249 Z-12.7000 F2540.0
G1 X-6.3500 Y-5.4993 Z-12.7000 F2540.0
G2 X-1.5875 Y-8.2489 Z-12.7000 I1.5875 J-2.7496 F2540.0
G1 X-1.5875 Y-21.9002 Z-12.7000 F2540.0
G3 X0.4886 Y-23.5038 Z-12.7000 I1.5889 J-0.0887 F2540.0
G3 X1.5875 Y-21.9002 Z-12.7000 I-0.5021 J1.5224 F2540.0
G1 X1.5875 Y-8.2489 Z-12.7000 F2540.0
G2 X6.3500 Y-5.4993 Z-12.7000 I3.1750 J-0.0000 F2540.0
G1 X18.1724 Y-12.3249 Z-12.7000 F2540.0
G3 X20.0086 Y-9.7405 Z-12.7000 I0.8736 J1.3238 F2540.0
G1 X19.7599 Y-9.5753 Z-12.7000 F2540.0
G1 X7.9375 Y-2.7496 Z-12.7000 F2540.0
G2 X6.3528 Y0.1341 Z-12.7000 I1.5875 J2.7496 F2540.0
G1 X6.3528 Y0.1341 Z-17.0180 F1270.0
G2 X7.9375 Y2.7496 Z-17.0180 I3.1722 J-0.1341 F2540.0
G1 X19.7599 Y9.5753 Z-17.0180 F2540.0
G3 X18.4398 Y12.4577 Z-17.0180 I-0.7097 J1.4185 F2540.0
G1 X18.1724 Y12.3249 Z-17.0180 F2540.0
G1 X6.3500 Y5.4993 Z-17.0180 F2540.0
G2 X1.5875 Y8.2489 Z-17.0180 I-1.5875 J2.7496 F2540.0
G1 X1.5875 Y21.9002 Z-17.0180 F2540.0
G3 X-1.5688 Y22.1982 Z-17.0180 I-1.5833 J0.0946 F2540.0
G1 X-1.5875 Y21.9002 Z-17.0180 F2540.0
G1 X-1.5875 Y8.2489 Z-17.0180 F2540.0
G2 X-6.3500 Y5.4993 Z-17.0180 I-3.1750 J0.0000 F2540.0
G1 X-18.1724 Y12.3249 Z-17.0180 F2540.0
G3 X-20.0086 Y9.7405 Z-17.0180 I-0.8736 J-1.3238 F2540.0
G1 X-19.7599 Y9.5753 Z-17.0180 F2540.0
G1 X-7.9375 Y2.7496 Z-17.0180 F2540.0
G2 X-7.9375 Y-2.7496 Z-17.0180 I-1.5875 J-2.7496 F2540.0
G1 X-19.7599 Y-9.5753 Z-17.0180 F2540.0
G3 X-18.4398 Y-12.4577 Z-17.0180 I0.7097 J-1.4185 F2540.0
G1 X-18.1724 Y-12.3249 Z-17.0180 F2540.0
G1 X-6.3500 Y-5.4993 Z-17.0180 F2540.0
G2 X-1.5875 Y-8.2489 Z-17.0180 I1.5875 J-2.7496 F2540.0
G1 X-1.5875 Y-21.9002 Z-17.0180 F2540.0
G3 X0.4886 Y-23.5038 Z-17.0180 I1.5889 J-0.0887 F2540.0
G3 X1.5875 Y-21.9002 Z-17.0180 I-0.5021 J1.5224 F2540.0
G1 X1.5875 Y-8.2489 Z-17.0180 F2540.0
G2 X6.3500 Y-5.4993 Z-17.0180 I3.1750 J-0.0000 F2540.0
G1 X18.1724 Y-12.3249 Z-17.0180 F2540.0
G3 X20.0086 Y-9.7405 Z-17.0180 I0.8736 J1.3238 F2540.0
G1 X19.7599 Y-9.5753 Z-17.0180 F2540.0
G1 X7.9375 Y-2.7496 Z-17.0180 F2540.0
G2 X6.3528 Y0.1341 Z-17.0180 I1.5875 J2.7496 F2540.0
G0 Z12.7000
G0 X0.6522 Y0.3752 Z12.7000
G0 X0.6522 Y0.3752 Z12.7000
G1 X0.6522 Y0.3752 Z-17.0180 F1270.0
G2 X0.0012 Y0.7524 Z-17.0180 I1.6797 J3.6493 F2540.0
G2 X-0.6510 Y0.3772 Z-17.0180 I-2.3206 J3.2793 F2540.0
G2 X-0.6522 Y-0.3752 Z-17.0180 I-4.0003 J-0.3700 F2540.0
G2 X-0.0012 Y-0.7524 Z-17.0180 I-1.6797 J-3.6494 F2540.0
G2 X0.6510 Y-0.3772 Z-17.0180 I2.3206 J-3.2793 F2540.0
G2 X0.6522 Y0.3752 Z-17.0180 I4.0003 J0.3700 F2540.0
G0 Z12.7000
G0 Z12.7000
;end operation: bolt hole
;begin postamble
M5
M25
G49 H0
G90 G80 G40 G49
M99
