
;Exported by FreeCAD
;Post Processor: centroid_post
;CAM file: A:/eng/cad/FreeCad/woodworking/silent susan/silent susan v5.FCStd
;Output Time: 2022-06-17 11:13:03.682496
G90 G80 G40 G49
;T2=__250_in_Endmill
;begin preamble
G53 G00 G17
G21
;begin operation
G54
;end operation: Fixture
;begin operation
;0.250 in Endmill001
M6 T2
M3 S0
;end operation: 0.250 in Endmill001
;begin operation
;m.track
G0 Z12.7000
G0 X132.4587 Y132.4587
G1 X132.4587 Y132.4587 Z-6.3500 F1270.0
G3 X-7.6407 Y187.1689 Z-6.3500 I-132.4587 J-132.4587 F2540.0
G3 X7.6407 Y-187.1689 Z-6.3500 I7.6407 J-187.1689 F2540.0
G3 X132.4587 Y132.4587 Z-6.3500 I-7.6407 J187.1689 F2540.0
G0 Z12.7000
G0 X129.7644 Y129.7644 Z12.7000
G0 X129.7644 Y129.7644 Z12.7000
G1 X129.7644 Y129.7644 Z-6.3500 F1270.0
G3 X-7.4853 Y183.3619 Z-6.3500 I-129.7644 J-129.7644 F2540.0
G3 X7.4853 Y-183.3619 Z-6.3500 I7.4853 J-183.3619 F2540.0
G3 X129.7644 Y129.7644 Z-6.3500 I-7.4853 J183.3619 F2540.0
G0 Z12.7000
G0 X128.8664 Y128.8664 Z12.7000
G0 X128.8664 Y128.8664 Z12.7000
G1 X128.8664 Y128.8664 Z-6.3500 F1270.0
G3 X7.8087 Y182.0773 Z-6.3500 I-128.8664 J-128.8664 F2540.0
G3 X-7.8087 Y-182.0773 Z-6.3500 I-7.8087 J-182.0773 F2540.0
G3 X128.8664 Y128.8664 Z-6.3500 I7.8087 J182.0773 F2540.0
G0 Z12.7000
G0 X126.1725 Y126.1725 Z12.7000
G0 X126.1725 Y126.1725 Z12.7000
G1 X126.1725 Y126.1725 Z-6.3500 F1270.0
G3 X7.6067 Y178.2726 Z-6.3500 I-126.1725 J-126.1725 F2540.0
G3 X-178.2726 Y7.6067 Z-6.3500 I-7.6067 J-178.2726 F2540.0
G3 X-7.6067 Y-178.2726 Z-6.3500 I178.2726 J-7.6067 F2540.0
G3 X126.1725 Y126.1725 Z-6.3500 I7.6067 J178.2726 F2540.0
G1 X126.1725 Y126.1725 Z-8.8900 F1270.0
G3 X7.6067 Y178.2726 Z-8.8900 I-126.1725 J-126.1725 F2540.0
G3 X-178.2726 Y7.6067 Z-8.8900 I-7.6067 J-178.2726 F2540.0
G3 X-7.6067 Y-178.2726 Z-8.8900 I178.2726 J-7.6067 F2540.0
G3 X126.1725 Y126.1725 Z-8.8900 I7.6067 J178.2726 F2540.0
G0 Z12.7000
G0 X128.8664 Y128.8664 Z12.7000
G0 X128.8664 Y128.8664 Z12.7000
G1 X128.8664 Y128.8664 Z-8.8900 F1270.0
G3 X7.8087 Y182.0773 Z-8.8900 I-128.8664 J-128.8664 F2540.0
G3 X-7.8087 Y-182.0773 Z-8.8900 I-7.8087 J-182.0773 F2540.0
G3 X128.8664 Y128.8664 Z-8.8900 I7.8087 J182.0773 F2540.0
G0 Z12.7000
G0 X129.7644 Y129.7644 Z12.7000
G0 X129.7644 Y129.7644 Z12.7000
G1 X129.7644 Y129.7644 Z-8.8900 F1270.0
G3 X-7.4853 Y183.3619 Z-8.8900 I-129.7644 J-129.7644 F2540.0
G3 X7.4853 Y-183.3619 Z-8.8900 I7.4853 J-183.3619 F2540.0
G3 X129.7644 Y129.7644 Z-8.8900 I-7.4853 J183.3619 F2540.0
G0 Z12.7000
G0 X132.4587 Y132.4587 Z12.7000
G0 X132.4587 Y132.4587 Z12.7000
G1 X132.4587 Y132.4587 Z-8.8900 F1270.0
G3 X-7.6407 Y187.1689 Z-8.8900 I-132.4587 J-132.4587 F2540.0
G3 X7.6407 Y-187.1689 Z-8.8900 I7.6407 J-187.1689 F2540.0
G3 X132.4587 Y132.4587 Z-8.8900 I-7.6407 J187.1689 F2540.0
G0 Z12.7000
G0 Z12.7000
;end operation: m.track
;begin operation
G0 Z12.7000
G0 X199.8106 Y199.8106 Z12.7000
G1 X199.8106 Y199.8106 Z-6.3500 F1270.0
G2 X9.5705 Y-282.4128 Z-6.3500 I-199.8106 J-199.8106 F2540.0
G2 X-9.5705 Y282.4128 Z-6.3500 I-9.5705 J282.4128 F2540.0
G2 X199.8106 Y199.8106 Z-6.3500 I9.5705 J-282.4128 F2540.0
G1 X199.8106 Y199.8106 Z-12.7000 F1270.0
G2 X9.5705 Y-282.4128 Z-12.7000 I-199.8106 J-199.8106 F2540.0
G2 X-9.5705 Y282.4128 Z-12.7000 I-9.5705 J282.4128 F2540.0
G2 X199.8106 Y199.8106 Z-12.7000 I9.5705 J-282.4128 F2540.0
G1 X199.8106 Y199.8106 Z-19.0500 F1270.0
G2 X9.5705 Y-282.4128 Z-19.0500 I-199.8106 J-199.8106 F2540.0
G2 X-9.5705 Y282.4128 Z-19.0500 I-9.5705 J282.4128 F2540.0
G2 X199.8106 Y199.8106 Z-19.0500 I9.5705 J-282.4128 F2540.0
G1 X199.8106 Y199.8106 Z-25.4000 F1270.0
G2 X275.4578 Y63.0205 Z-25.4000 I-199.8106 J-199.8106 F2540.0
G1 X275.4789 Y62.9280 Z-25.2357 F1693.3
G1 X275.8711 Y61.1859 Z-22.1428 F1693.3
G1 X276.2522 Y59.4414 Z-19.0500 F1693.3
G2 X277.0707 Y55.5012 Z-19.0500 I-276.2522 J-59.4414 F2540.0
G1 X277.7675 Y51.9018 Z-25.4000 F1693.3
G2 X167.5148 Y-227.5684 Z-25.4000 I-277.7675 J-51.9018 F2540.0
G1 X167.4384 Y-227.6246 Z-25.2357 F1693.3
G1 X165.9966 Y-228.6782 Z-22.1428 F1693.3
G1 X164.5482 Y-229.7226 Z-19.0500 F1693.3
G2 X161.2600 Y-232.0426 Z-19.0500 I-164.5482 J229.7226 F2540.0
G1 X158.2359 Y-234.1153 Z-25.4000 F1693.3
G2 X9.5705 Y-282.4128 Z-25.4000 I-158.2359 J234.1153 F2540.0
G2 X-93.8962 Y-266.5184 Z-25.4000 I-9.5705 J282.4128 F2540.0
G1 X-97.3462 Y-265.2778 Z-19.0500 F1693.3
G2 X-101.1142 Y-263.8645 Z-19.0500 I97.3462 J265.2778 F2540.0
G1 X-104.5291 Y-262.5305 Z-25.4000 F1693.3
G2 X-254.8516 Y-122.0623 Z-25.4000 I104.5291 J262.5305 F2540.0
G1 X-254.8926 Y-121.9768 Z-25.2357 F1693.3
G1 X-255.6583 Y-120.3636 Z-22.1428 F1693.3
G1 X-256.4138 Y-118.7456 Z-19.0500 F1693.3
G2 X-258.0789 Y-115.0819 Z-19.0500 I256.4138 J118.7456 F2540.0
G1 X-259.5503 Y-111.7239 Z-25.4000 F1693.3
G2 X-266.5184 Y93.8962 Z-25.4000 I259.5503 J111.7239 F2540.0
G1 X-266.4869 Y93.9857 Z-25.2357 F1693.3
G1 X-265.2778 Y97.3462 Z-19.0500 F1693.3
G2 X-263.8645 Y101.1142 Z-19.0500 I265.2778 J-97.3462 F2540.0
G1 X-262.5305 Y104.5291 Z-25.4000 F1693.3
G2 X-122.0623 Y254.8516 Z-25.4000 I262.5305 J-104.5291 F2540.0
G1 X-121.9768 Y254.8926 Z-25.2357 F1693.3
G1 X-118.7456 Y256.4138 Z-19.0500 F1693.3
G2 X-115.0819 Y258.0789 Z-19.0500 I118.7456 J-256.4138 F2540.0
G1 X-111.7239 Y259.5503 Z-25.4000 F1693.3
G2 X-9.5705 Y282.4128 Z-25.4000 I111.7239 J-259.5503 F2540.0
G2 X199.8106 Y199.8106 Z-25.4000 I9.5705 J-282.4128 F2540.0
G0 X199.8106 Y199.8106 Z12.7000
;end operation: DressupTag
;begin operation
;m.bolt hole
G0 Z12.7000
G0 X19.2485 Y12.5674
G1 X19.2485 Y12.5674 Z-6.3500 F1270.0
G3 X18.4398 Y12.4577 Z-6.3500 I-0.1983 J-1.5736 F2540.0
G1 X18.1724 Y12.3249 Z-6.3500 F2540.0
G1 X6.3500 Y5.4993 Z-6.3500 F2540.0
G2 X1.5875 Y8.2489 Z-6.3500 I-1.5875 J2.7496 F2540.0
G1 X1.5875 Y21.9002 Z-6.3500 F2540.0
G3 X-1.5688 Y22.1982 Z-6.3500 I-1.5833 J0.0946 F2540.0
G1 X-1.5875 Y21.9002 Z-6.3500 F2540.0
G1 X-1.5875 Y8.2489 Z-6.3500 F2540.0
G2 X-6.3500 Y5.4993 Z-6.3500 I-3.1750 J0.0000 F2540.0
G1 X-18.1724 Y12.3249 Z-6.3500 F2540.0
G3 X-20.0086 Y9.7405 Z-6.3500 I-0.8736 J-1.3238 F2540.0
G1 X-19.7599 Y9.5753 Z-6.3500 F2540.0
G1 X-7.9375 Y2.7496 Z-6.3500 F2540.0
G2 X-7.9375 Y-2.7496 Z-6.3500 I-1.5875 J-2.7496 F2540.0
G1 X-19.7599 Y-9.5753 Z-6.3500 F2540.0
G3 X-18.4398 Y-12.4577 Z-6.3500 I0.7097 J-1.4185 F2540.0
G1 X-18.1724 Y-12.3249 Z-6.3500 F2540.0
G1 X-6.3500 Y-5.4993 Z-6.3500 F2540.0
G2 X-1.5875 Y-8.2489 Z-6.3500 I1.5875 J-2.7496 F2540.0
G1 X-1.5875 Y-21.9002 Z-6.3500 F2540.0
G3 X0.4886 Y-23.5038 Z-6.3500 I1.5889 J-0.0887 F2540.0
G3 X1.5875 Y-21.9002 Z-6.3500 I-0.5021 J1.5224 F2540.0
G1 X1.5875 Y-8.2489 Z-6.3500 F2540.0
G2 X6.3500 Y-5.4993 Z-6.3500 I3.1750 J0.0000 F2540.0
G1 X18.1724 Y-12.3249 Z-6.3500 F2540.0
G3 X20.0086 Y-9.7405 Z-6.3500 I0.8736 J1.3238 F2540.0
G1 X19.7599 Y-9.5753 Z-6.3500 F2540.0
G1 X7.9375 Y-2.7496 Z-6.3500 F2540.0
G2 X7.9375 Y2.7496 Z-6.3500 I1.5875 J2.7496 F2540.0
G1 X19.7599 Y9.5753 Z-6.3500 F2540.0
G3 X19.2485 Y12.5674 Z-6.3500 I-0.7097 J1.4185 F2540.0
G0 Z12.7000
G0 X0.6522 Y0.3752 Z12.7000
G0 X0.6522 Y0.3752 Z12.7000
G1 X0.6522 Y0.3752 Z-6.3500 F1270.0
G2 X0.0012 Y0.7524 Z-6.3500 I1.6797 J3.6493 F2540.0
G2 X-0.6510 Y0.3772 Z-6.3500 I-2.3206 J3.2793 F2540.0
G2 X-0.6522 Y-0.3752 Z-6.3500 I-4.0003 J-0.3700 F2540.0
G2 X-0.0012 Y-0.7524 Z-6.3500 I-1.6797 J-3.6494 F2540.0
G2 X0.6510 Y-0.3772 Z-6.3500 I2.3206 J-3.2794 F2540.0
G2 X0.6522 Y0.3752 Z-6.3500 I4.0003 J0.3700 F2540.0
G1 X0.6522 Y0.3752 Z-12.7000 F1270.0
G2 X0.0012 Y0.7524 Z-12.7000 I1.6797 J3.6493 F2540.0
G2 X-0.6510 Y0.3772 Z-12.7000 I-2.3206 J3.2793 F2540.0
G2 X-0.6522 Y-0.3752 Z-12.7000 I-4.0003 J-0.3700 F2540.0
G2 X-0.0012 Y-0.7524 Z-12.7000 I-1.6797 J-3.6494 F2540.0
G2 X0.6510 Y-0.3772 Z-12.7000 I2.3206 J-3.2794 F2540.0
G2 X0.6522 Y0.3752 Z-12.7000 I4.0003 J0.3700 F2540.0
G0 Z12.7000
G0 X6.3528 Y0.1341 Z12.7000
G0 X6.3528 Y0.1341 Z12.7000
G1 X6.3528 Y0.1341 Z-12.7000 F1270.0
G2 X7.9375 Y2.7496 Z-12.7000 I3.1722 J-0.1341 F2540.0
G1 X19.7599 Y9.5753 Z-12.7000 F2540.0
G3 X18.4398 Y12.4577 Z-12.7000 I-0.7097 J1.4185 F2540.0
G1 X18.1724 Y12.3249 Z-12.7000 F2540.0
G1 X6.3500 Y5.4993 Z-12.7000 F2540.0
G2 X1.5875 Y8.2489 Z-12.7000 I-1.5875 J2.7496 F2540.0
G1 X1.5875 Y21.9002 Z-12.7000 F2540.0
G3 X-1.5688 Y22.1982 Z-12.7000 I-1.5833 J0.0946 F2540.0
G1 X-1.5875 Y21.9002 Z-12.7000 F2540.0
G1 X-1.5875 Y8.2489 Z-12.7000 F2540.0
G2 X-6.3500 Y5.4993 Z-12.7000 I-3.1750 J0.0000 F2540.0
G1 X-18.1724 Y12.3249 Z-12.7000 F2540.0
G3 X-20.0086 Y9.7405 Z-12.7000 I-0.8736 J-1.3238 F2540.0
G1 X-19.7599 Y9.5753 Z-12.7000 F2540.0
G1 X-7.9375 Y2.7496 Z-12.7000 F2540.0
G2 X-7.9375 Y-2.7496 Z-12.7000 I-1.5875 J-2.7496 F2540.0
G1 X-19.7599 Y-9.5753 Z-12.7000 F2540.0
G3 X-18.4398 Y-12.4577 Z-12.7000 I0.7097 J-1.4185 F2540.0
G1 X-18.1724 Y-12.3249 Z-12.7000 F2540.0
G1 X-6.3500 Y-5.4993 Z-12.7000 F2540.0
G2 X-1.5875 Y-8.2489 Z-12.7000 I1.5875 J-2.7496 F2540.0
G1 X-1.5875 Y-21.9002 Z-12.7000 F2540.0
G3 X0.4886 Y-23.5038 Z-12.7000 I1.5889 J-0.0887 F2540.0
G3 X1.5875 Y-21.9002 Z-12.7000 I-0.5021 J1.5224 F2540.0
G1 X1.5875 Y-8.2489 Z-12.7000 F2540.0
G2 X6.3500 Y-5.4993 Z-12.7000 I3.1750 J0.0000 F2540.0
G1 X18.1724 Y-12.3249 Z-12.7000 F2540.0
G3 X20.0086 Y-9.7405 Z-12.7000 I0.8736 J1.3238 F2540.0
G1 X19.7599 Y-9.5753 Z-12.7000 F2540.0
G1 X7.9375 Y-2.7496 Z-12.7000 F2540.0
G2 X6.3528 Y0.1341 Z-12.7000 I1.5875 J2.7496 F2540.0
G1 X6.3528 Y0.1341 Z-17.0180 F1270.0
G2 X7.9375 Y2.7496 Z-17.0180 I3.1722 J-0.1341 F2540.0
G1 X19.7599 Y9.5753 Z-17.0180 F2540.0
G3 X18.4398 Y12.4577 Z-17.0180 I-0.7097 J1.4185 F2540.0
G1 X18.1724 Y12.3249 Z-17.0180 F2540.0
G1 X6.3500 Y5.4993 Z-17.0180 F2540.0
G2 X1.5875 Y8.2489 Z-17.0180 I-1.5875 J2.7496 F2540.0
G1 X1.5875 Y21.9002 Z-17.0180 F2540.0
G3 X-1.5688 Y22.1982 Z-17.0180 I-1.5833 J0.0946 F2540.0
G1 X-1.5875 Y21.9002 Z-17.0180 F2540.0
G1 X-1.5875 Y8.2489 Z-17.0180 F2540.0
G2 X-6.3500 Y5.4993 Z-17.0180 I-3.1750 J0.0000 F2540.0
G1 X-18.1724 Y12.3249 Z-17.0180 F2540.0
G3 X-20.0086 Y9.7405 Z-17.0180 I-0.8736 J-1.3238 F2540.0
G1 X-19.7599 Y9.5753 Z-17.0180 F2540.0
G1 X-7.9375 Y2.7496 Z-17.0180 F2540.0
G2 X-7.9375 Y-2.7496 Z-17.0180 I-1.5875 J-2.7496 F2540.0
G1 X-19.7599 Y-9.5753 Z-17.0180 F2540.0
G3 X-18.4398 Y-12.4577 Z-17.0180 I0.7097 J-1.4185 F2540.0
G1 X-18.1724 Y-12.3249 Z-17.0180 F2540.0
G1 X-6.3500 Y-5.4993 Z-17.0180 F2540.0
G2 X-1.5875 Y-8.2489 Z-17.0180 I1.5875 J-2.7496 F2540.0
G1 X-1.5875 Y-21.9002 Z-17.0180 F2540.0
G3 X0.4886 Y-23.5038 Z-17.0180 I1.5889 J-0.0887 F2540.0
G3 X1.5875 Y-21.9002 Z-17.0180 I-0.5021 J1.5224 F2540.0
G1 X1.5875 Y-8.2489 Z-17.0180 F2540.0
G2 X6.3500 Y-5.4993 Z-17.0180 I3.1750 J0.0000 F2540.0
G1 X18.1724 Y-12.3249 Z-17.0180 F2540.0
G3 X20.0086 Y-9.7405 Z-17.0180 I0.8736 J1.3238 F2540.0
G1 X19.7599 Y-9.5753 Z-17.0180 F2540.0
G1 X7.9375 Y-2.7496 Z-17.0180 F2540.0
G2 X6.3528 Y0.1341 Z-17.0180 I1.5875 J2.7496 F2540.0
G0 Z12.7000
G0 X0.6522 Y0.3752 Z12.7000
G0 X0.6522 Y0.3752 Z12.7000
G1 X0.6522 Y0.3752 Z-17.0180 F1270.0
G2 X0.0012 Y0.7524 Z-17.0180 I1.6797 J3.6493 F2540.0
G2 X-0.6510 Y0.3772 Z-17.0180 I-2.3206 J3.2793 F2540.0
G2 X-0.6522 Y-0.3752 Z-17.0180 I-4.0003 J-0.3700 F2540.0
G2 X-0.0012 Y-0.7524 Z-17.0180 I-1.6797 J-3.6494 F2540.0
G2 X0.6510 Y-0.3772 Z-17.0180 I2.3206 J-3.2794 F2540.0
G2 X0.6522 Y0.3752 Z-17.0180 I4.0003 J0.3700 F2540.0
G0 Z12.7000
G0 Z12.7000
;end operation: m.bolt hole
;begin postamble
M5
M25
G49 H0
G90 G80 G40 G49
M99
