
;Exported by FreeCAD
;Post Processor: centroid_post
;CAM file: C:/Users/jense/git/cad/FreeCad/woodworking/silent susan/silent susan v5.FCStd
;Output Time: 2022-06-18 20:59:40.223389
G90 G80 G40 G49
;T2=__250_in_Endmill002
;begin preamble
G53 G00 G17
G21
;begin operation
G54
;end operation: Fixture
;begin operation
;0.250 in Endmill003
M6 T2
M3 S0
;end operation: 0.250 in Endmill003
;begin operation
G0 Z5.0000
G0 X145.9291 Y145.9291 Z5.0000
G0 X145.9291 Y145.9291 Z3.0000
G1 X145.9291 Y145.9291 Z-6.3500
G2 X6.1213 Y-206.2840 Z-6.3500 I-145.9291 J-145.9291
G2 X-6.1213 Y206.2840 Z-6.3500 I-6.1213 J206.2840
G2 X145.9291 Y145.9291 Z-6.3500 I6.1213 J-206.2840
G1 X145.9291 Y145.9291 Z-12.7000
G2 X6.1213 Y-206.2840 Z-12.7000 I-145.9291 J-145.9291
G2 X-6.1213 Y206.2840 Z-12.7000 I-6.1213 J206.2840
G2 X145.9291 Y145.9291 Z-12.7000 I6.1213 J-206.2840
G1 X145.9291 Y145.9291 Z-19.0500
G2 X200.3080 Y49.6716 Z-19.0500 I-145.9291 J-145.9291
G1 X201.0510 Y46.5734 Z-15.8643
G1 X201.7414 Y43.4853 Z-12.7000
G2 X202.4543 Y40.0352 Z-12.7000 I-201.7414 J-43.4853
G1 X203.1702 Y36.2277 Z-16.5741
G1 X203.5903 Y33.7873 Z-19.0500
G2 X124.9946 Y-164.2161 Z-19.0500 I-203.5903 J-33.7873
G1 X122.4446 Y-166.1262 Z-15.8643
G1 X119.8830 Y-167.9841 Z-12.7000
G2 X116.9980 Y-170.0060 Z-12.7000 I-119.8830 J167.9841
G1 X113.7861 Y-172.1723 Z-16.5741
G1 X111.7121 Y-173.5252 Z-19.0500
G2 X6.1213 Y-206.2840 Z-19.0500 I-111.7121 J173.5252
G2 X-90.6247 Y-185.4124 Z-19.0500 I-6.1213 J206.2840
G1 X-93.4762 Y-183.9912 Z-15.8643
G1 X-96.2864 Y-182.5363 Z-12.7000
G2 X-99.3882 Y-180.8661 Z-12.7000 I96.2864 J182.5363
G1 X-102.7659 Y-178.9686 Z-16.5741
G1 X-104.9059 Y-177.7226 Z-19.0500
G2 X-205.8842 Y-14.2229 Z-19.0500 I104.9059 J177.7226
G1 X-206.0792 Y-11.0428 Z-15.8643
G1 X-206.2243 Y-7.8817 Z-12.7000
G2 X-206.3288 Y-4.3603 Z-12.7000 I206.2243 J7.8817
G1 X-206.3743 Y-0.4864 Z-16.5741
G1 X-206.3653 Y1.9898 Z-19.0500
G2 X-115.2595 Y171.1895 Z-19.0500 I206.3653 J-1.9898
G1 X-112.0259 Y173.3227 Z-15.1766
G1 X-109.9379 Y174.6546 Z-12.7000
G2 X-106.9405 Y176.5058 Z-12.7000 I109.9379 J-174.6546
G1 X-103.6084 Y178.4822 Z-16.5741
G1 X-101.4594 Y179.7125 Z-19.0500
G2 X-6.1213 Y206.2840 Z-19.0500 I101.4594 J-179.7125
G2 X68.5430 Y194.6598 Z-19.0500 I6.1213 J-206.2840
G1 X72.1846 Y193.3390 Z-15.1766
G1 X74.4996 Y192.4588 Z-12.7000
G2 X77.7740 Y191.1590 Z-12.7000 I-74.4996 J-192.4588
G1 X81.3487 Y189.6654 Z-16.5741
G1 X83.6186 Y188.6757 Z-19.0500
G2 X145.9291 Y145.9291 Z-19.0500 I-83.6186 J-188.6757
G0 X145.9291 Y145.9291 Z5.0000
;end operation: DressupTag001
;begin operation
;Pocket_Shape002
G0 Z5.0000
G0 X26.4912 Y26.4912
G0 Z3.0000
G1 X26.4912 Y26.4912 Z-6.3500
G3 X-37.3176 Y-3.3111 Z-6.3500 I-26.4912 J-26.4912
G3 X3.3111 Y-37.3176 Z-6.3500 I37.3176 J3.3111
G3 X37.3176 Y3.3111 Z-6.3500 I-3.3111 J37.3176
G3 X26.4912 Y26.4912 Z-6.3500 I-37.3176 J-3.3111
G0 Z5.0000
G0 X22.8982 Y22.8982 Z5.0000
G0 X22.8982 Y22.8982 Z3.0000
G1 X22.8982 Y22.8982 Z-6.3500
G3 X-32.2563 Y-2.8620 Z-6.3500 I-22.8982 J-22.8982
G3 X32.2563 Y2.8620 Z-6.3500 I32.2563 J2.8620
G3 X22.8982 Y22.8982 Z-6.3500 I-32.2563 J-2.8620
G0 Z5.0000
G0 X19.3052 Y19.3052 Z5.0000
G0 X19.3052 Y19.3052 Z3.0000
G1 X19.3052 Y19.3052 Z-6.3500
G3 X-27.1949 Y-2.4129 Z-6.3500 I-19.3052 J-19.3052
G3 X27.1949 Y2.4129 Z-6.3500 I27.1949 J2.4129
G3 X19.3052 Y19.3052 Z-6.3500 I-27.1949 J-2.4129
G0 Z5.0000
G0 X17.3523 Y17.3523 Z5.0000
G0 X17.3523 Y17.3523 Z3.0000
G1 X17.3523 Y17.3523 Z-6.3500
G3 X-24.4953 Y1.4768 Z-6.3500 I-17.3523 J-17.3523
G3 X24.4953 Y-1.4768 Z-6.3500 I24.4953 J-1.4768
G3 X17.3523 Y17.3523 Z-6.3500 I-24.4953 J1.4768
G0 Z5.0000
G0 X13.7610 Y13.7610 Z5.0000
G0 X13.7610 Y13.7610 Z3.0000
G1 X13.7610 Y13.7610 Z-6.3500
G3 X-19.4197 Y1.2669 Z-6.3500 I-13.7610 J-13.7610
G3 X19.4197 Y-1.2669 Z-6.3500 I19.4197 J-1.2669
G3 X13.7610 Y13.7610 Z-6.3500 I-19.4197 J1.2669
G0 Z5.0000
G0 X10.1702 Y10.1702 Z5.0000
G0 X10.1702 Y10.1702 Z3.0000
G1 X10.1702 Y10.1702 Z-6.3500
G3 X-14.3440 Y1.0569 Z-6.3500 I-10.1702 J-10.1702
G3 X14.3440 Y-1.0569 Z-6.3500 I14.3440 J-1.0569
G3 X10.1702 Y10.1702 Z-6.3500 I-14.3440 J1.0569
G1 X10.1702 Y10.1702 Z-9.9400
G3 X-14.3440 Y1.0569 Z-9.9400 I-10.1702 J-10.1702
G3 X14.3440 Y-1.0569 Z-9.9400 I14.3440 J-1.0569
G3 X10.1702 Y10.1702 Z-9.9400 I-14.3440 J1.0569
G0 Z5.0000
G0 X13.7610 Y13.7610 Z5.0000
G0 X13.7610 Y13.7610 Z3.0000
G1 X13.7610 Y13.7610 Z-9.9400
G3 X-19.4197 Y1.2669 Z-9.9400 I-13.7610 J-13.7610
G3 X19.4197 Y-1.2669 Z-9.9400 I19.4197 J-1.2669
G3 X13.7610 Y13.7610 Z-9.9400 I-19.4197 J1.2669
G0 Z5.0000
G0 X17.3523 Y17.3523 Z5.0000
G0 X17.3523 Y17.3523 Z3.0000
G1 X17.3523 Y17.3523 Z-9.9400
G3 X-24.4953 Y1.4768 Z-9.9400 I-17.3523 J-17.3523
G3 X24.4953 Y-1.4768 Z-9.9400 I24.4953 J-1.4768
G3 X17.3523 Y17.3523 Z-9.9400 I-24.4953 J1.4768
G0 Z5.0000
G0 X19.3052 Y19.3052 Z5.0000
G0 X19.3052 Y19.3052 Z3.0000
G1 X19.3052 Y19.3052 Z-9.9400
G3 X-27.1949 Y-2.4129 Z-9.9400 I-19.3052 J-19.3052
G3 X27.1949 Y2.4129 Z-9.9400 I27.1949 J2.4129
G3 X19.3052 Y19.3052 Z-9.9400 I-27.1949 J-2.4129
G0 Z5.0000
G0 X22.8982 Y22.8982 Z5.0000
G0 X22.8982 Y22.8982 Z3.0000
G1 X22.8982 Y22.8982 Z-9.9400
G3 X-32.2563 Y-2.8620 Z-9.9400 I-22.8982 J-22.8982
G3 X32.2563 Y2.8620 Z-9.9400 I32.2563 J2.8620
G3 X22.8982 Y22.8982 Z-9.9400 I-32.2563 J-2.8620
G0 Z5.0000
G0 X26.4912 Y26.4912 Z5.0000
G0 X26.4912 Y26.4912 Z3.0000
G1 X26.4912 Y26.4912 Z-9.9400
G3 X-37.3176 Y-3.3111 Z-9.9400 I-26.4912 J-26.4912
G3 X3.3111 Y-37.3176 Z-9.9400 I37.3176 J3.3111
G3 X37.3176 Y3.3111 Z-9.9400 I-3.3111 J37.3176
G3 X26.4912 Y26.4912 Z-9.9400 I-37.3176 J-3.3111
G0 Z5.0000
G0 Z5.0000
;end operation: Pocket_Shape002
;begin operation
;Pocket_Shape003
G0 Z5.0000
G0 X5.6797 Y5.6797
G0 Z3.0000
G1 X5.6797 Y5.6797 Z-6.3500
G3 X-1.3221 Y7.9227 Z-6.3500 I-5.6797 J-5.6797
G3 X1.3221 Y-7.9227 Z-6.3500 I1.3221 J-7.9227
G3 X5.6797 Y5.6797 Z-6.3500 I-1.3221 J7.9227
G0 Z5.0000
G0 X2.0845 Y2.0845 Z5.0000
G0 X2.0845 Y2.0845 Z3.0000
G1 X2.0845 Y2.0845 Z-6.3500
G3 X-0.4852 Y2.9077 Z-6.3500 I-2.0845 J-2.0845
G3 X0.4852 Y-2.9077 Z-6.3500 I0.4852 J-2.9077
G3 X2.0845 Y2.0845 Z-6.3500 I-0.4852 J2.9077
G0 Z5.0000
G0 X0.9610 Y0.9610 Z5.0000
G0 X0.9610 Y0.9610 Z3.0000
G1 X0.9610 Y0.9610 Z-6.3500
G3 X-0.2237 Y1.3405 Z-6.3500 I-0.9610 J-0.9610
G3 X0.2237 Y-1.3405 Z-6.3500 I0.2237 J-1.3405
G3 X0.9610 Y0.9610 Z-6.3500 I-0.2237 J1.3405
G1 X0.9610 Y0.9610 Z-12.7000
G3 X-0.2237 Y1.3405 Z-12.7000 I-0.9610 J-0.9610
G3 X0.2237 Y-1.3405 Z-12.7000 I0.2237 J-1.3405
G3 X0.9610 Y0.9610 Z-12.7000 I-0.2237 J1.3405
G0 Z5.0000
G0 X2.0845 Y2.0845 Z5.0000
G0 X2.0845 Y2.0845 Z3.0000
G1 X2.0845 Y2.0845 Z-12.7000
G3 X-0.4852 Y2.9077 Z-12.7000 I-2.0845 J-2.0845
G3 X0.4852 Y-2.9077 Z-12.7000 I0.4852 J-2.9077
G3 X2.0845 Y2.0845 Z-12.7000 I-0.4852 J2.9077
G0 Z5.0000
G0 X5.6797 Y5.6797 Z5.0000
G0 X5.6797 Y5.6797 Z3.0000
G1 X5.6797 Y5.6797 Z-12.7000
G3 X-1.3221 Y7.9227 Z-12.7000 I-5.6797 J-5.6797
G3 X1.3221 Y-7.9227 Z-12.7000 I1.3221 J-7.9227
G3 X5.6797 Y5.6797 Z-12.7000 I-1.3221 J7.9227
G1 X5.6797 Y5.6797 Z-19.0500
G3 X-1.3221 Y7.9227 Z-19.0500 I-5.6797 J-5.6797
G3 X1.3221 Y-7.9227 Z-19.0500 I1.3221 J-7.9227
G3 X5.6797 Y5.6797 Z-19.0500 I-1.3221 J7.9227
G1 X5.6797 Y5.6797 Z-19.0500
G3 X-1.3221 Y7.9227 Z-19.0500 I-5.6797 J-5.6797
G3 X1.3221 Y-7.9227 Z-19.0500 I1.3221 J-7.9227
G3 X5.6797 Y5.6797 Z-19.0500 I-1.3221 J7.9227
G0 Z5.0000
G0 X2.0845 Y2.0845 Z5.0000
G0 X2.0845 Y2.0845 Z3.0000
G1 X2.0845 Y2.0845 Z-19.0500
G3 X-0.4852 Y2.9077 Z-19.0500 I-2.0845 J-2.0845
G3 X0.4852 Y-2.9077 Z-19.0500 I0.4852 J-2.9077
G3 X2.0845 Y2.0845 Z-19.0500 I-0.4852 J2.9077
G1 X2.0845 Y2.0845 Z-19.0500
G3 X-0.4852 Y2.9077 Z-19.0500 I-2.0845 J-2.0845
G3 X0.4852 Y-2.9077 Z-19.0500 I0.4852 J-2.9077
G3 X2.0845 Y2.0845 Z-19.0500 I-0.4852 J2.9077
G0 Z5.0000
G0 X0.9610 Y0.9610 Z5.0000
G0 X0.9610 Y0.9610 Z3.0000
G1 X0.9610 Y0.9610 Z-19.0500
G3 X-0.2237 Y1.3405 Z-19.0500 I-0.9610 J-0.9610
G3 X0.2237 Y-1.3405 Z-19.0500 I0.2237 J-1.3405
G3 X0.9610 Y0.9610 Z-19.0500 I-0.2237 J1.3405
G1 X0.9610 Y0.9610 Z-19.0500
G3 X-0.2237 Y1.3405 Z-19.0500 I-0.9610 J-0.9610
G3 X0.2237 Y-1.3405 Z-19.0500 I0.2237 J-1.3405
G3 X0.9610 Y0.9610 Z-19.0500 I-0.2237 J1.3405
G0 Z5.0000
G0 Z5.0000
;end operation: Pocket_Shape003
;begin postamble
M5
M25
G49 H0
G90 G80 G40 G49
M99
